tools/brand-treatment/luts/parallax_editorial.cube
# Parallax Meridian Brand Treatment — editorial ramp
# Desaturation: 25% of original
# Duotone: #C8B89A → #F0E6D0 → #F5F0E8
TITLE "Parallax Editorial"
LUT_3D_SIZE 64
0.784314 0.721569 0.603922
0.785803 0.723281 0.605932
0.787292 0.724993 0.607942
0.788781 0.726706 0.609952
0.790270 0.728418 0.611962
0.791758 0.730130 0.613972
0.793247 0.731842 0.615982
0.794736 0.733555 0.617992
0.796225 0.735267 0.620002
0.797714 0.736979 0.622012
0.799203 0.738692 0.624022
0.800692 0.740404 0.626032
0.802181 0.742116 0.628043
0.803670 0.743828 0.630053
0.805159 0.745541 0.632063
0.806648 0.747253 0.634073
0.808137 0.748965 0.636083
0.809626 0.750678 0.638093
0.811115 0.752390 0.640103
0.812604 0.754102 0.642113
0.814093 0.755815 0.644123
0.815582 0.757527 0.646133
0.817071 0.759239 0.648143
0.818560 0.760951 0.650154
0.820049 0.762664 0.652164
0.821538 0.764376 0.654174
0.823026 0.766088 0.656184
0.824515 0.767801 0.658194
0.826004 0.769513 0.660204
0.827493 0.771225 0.662214
0.828982 0.772937 0.664224
0.830471 0.774650 0.666234
0.831960 0.776362 0.668244
0.833449 0.778074 0.670254
0.834938 0.779787 0.672264
0.836427 0.781499 0.674275
0.837916 0.783211 0.676285
0.839405 0.784923 0.678295
0.840894 0.786636 0.680305
0.842383 0.788348 0.682315
0.843872 0.790060 0.684325
0.845361 0.791773 0.686335
0.846850 0.793485 0.688345
0.848339 0.795197 0.690355
0.849828 0.796910 0.692365
0.851317 0.798622 0.694375
0.852805 0.800334 0.696385
0.854294 0.802046 0.698396
0.855783 0.803759 0.700406
0.857272 0.805471 0.702416
0.858761 0.807183 0.704426
0.860250 0.808896 0.706436
0.861739 0.810608 0.708446
0.863228 0.812320 0.710456
0.864717 0.814032 0.712466
0.866206 0.815745 0.714476
0.867695 0.817457 0.716486
0.869184 0.819169 0.718496
0.870673 0.820882 0.720506
0.872162 0.822594 0.722517
0.873651 0.824306 0.724527
0.875140 0.826019 0.726537
0.876629 0.827731 0.728547
0.878118 0.829443 0.730557
0.787237 0.724930 0.607868
0.788726 0.726643 0.609878
0.790215 0.728355 0.611888
0.791704 0.730067 0.613898
0.793193 0.731779 0.615908
0.794682 0.733492 0.617918
0.796171 0.735204 0.619928
0.797660 0.736916 0.621938
0.799148 0.738629 0.623948
0.800637 0.740341 0.625959
0.802126 0.742053 0.627969
0.803615 0.743765 0.629979
0.805104 0.745478 0.631989
0.806593 0.747190 0.633999
0.808082 0.748902 0.636009
0.809571 0.750615 0.638019
0.811060 0.752327 0.640029
0.812549 0.754039 0.642039
0.814038 0.755752 0.644049
0.815527 0.757464 0.646059
0.817016 0.759176 0.648069
0.818505 0.760888 0.650080
0.819994 0.762601 0.652090
0.821483 0.764313 0.654100
0.822972 0.766025 0.656110
0.824461 0.767738 0.658120
0.825950 0.769450 0.660130
0.827439 0.771162 0.662140
0.828927 0.772874 0.664150
0.830416 0.774587 0.666160
0.831905 0.776299 0.668170
0.833394 0.778011 0.670180
0.834883 0.779724 0.672190
0.836372 0.781436 0.674201
0.837861 0.783148 0.676211
0.839350 0.784861 0.678221
0.840839 0.786573 0.680231
0.842328 0.788285 0.682241
0.843817 0.789997 0.684251
0.845306 0.791710 0.686261
0.846795 0.793422 0.688271
0.848284 0.795134 0.690281
0.849773 0.796847 0.692291
0.851262 0.798559 0.694301
0.852751 0.800271 0.696311
0.854240 0.801983 0.698322
0.855729 0.803696 0.700332
0.857218 0.805408 0.702342
0.858707 0.807120 0.704352
0.860195 0.808833 0.706362
0.861684 0.810545 0.708372
0.863173 0.812257 0.710382
0.864662 0.813969 0.712392
0.866151 0.815682 0.714402
0.867640 0.817394 0.716412
0.869129 0.819106 0.718422
0.870618 0.820819 0.720432
0.872107 0.822531 0.722443
0.873596 0.824243 0.724453
0.875085 0.825956 0.726463
0.876574 0.827668 0.728473
0.878063 0.829380 0.730483
0.879552 0.831092 0.732493
0.881041 0.832805 0.734503
0.790160 0.728292 0.611814
0.791649 0.730004 0.613824
0.793138 0.731716 0.615834
0.794627 0.733429 0.617844
0.796116 0.735141 0.619854
0.797605 0.736853 0.621864
0.799094 0.738566 0.623875
0.800583 0.740278 0.625885
0.802072 0.741990 0.627895
0.803561 0.743702 0.629905
0.805049 0.745415 0.631915
0.806538 0.747127 0.633925
0.808027 0.748839 0.635935
0.809516 0.750552 0.637945
0.811005 0.752264 0.639955
0.812494 0.753976 0.641965
0.813983 0.755689 0.643975
0.815472 0.757401 0.645985
0.816961 0.759113 0.647996
0.818450 0.760825 0.650006
0.819939 0.762538 0.652016
0.821428 0.764250 0.654026
0.822917 0.765962 0.656036
0.824406 0.767675 0.658046
0.825895 0.769387 0.660056
0.827384 0.771099 0.662066
0.828873 0.772811 0.664076
0.830362 0.774524 0.666086
0.831851 0.776236 0.668096
0.833340 0.777948 0.670106
0.834829 0.779661 0.672117
0.836317 0.781373 0.674127
0.837806 0.783085 0.676137
0.839295 0.784798 0.678147
0.840784 0.786510 0.680157
0.842273 0.788222 0.682167
0.843762 0.789934 0.684177
0.845251 0.791647 0.686187
0.846740 0.793359 0.688197
0.848229 0.795071 0.690207
0.849718 0.796784 0.692217
0.851207 0.798496 0.694227
0.852696 0.800208 0.696238
0.854185 0.801920 0.698248
0.855674 0.803633 0.700258
0.857163 0.805345 0.702268
0.858652 0.807057 0.704278
0.860141 0.808770 0.706288
0.861630 0.810482 0.708298
0.863119 0.812194 0.710308
0.864608 0.813907 0.712318
0.866096 0.815619 0.714328
0.867585 0.817331 0.716338
0.869074 0.819043 0.718348
0.870563 0.820756 0.720359
0.872052 0.822468 0.722369
0.873541 0.824180 0.724379
0.875030 0.825893 0.726389
0.876519 0.827605 0.728399
0.878008 0.829317 0.730409
0.879497 0.831029 0.732419
0.880986 0.832742 0.734429
0.882475 0.834454 0.736439
0.883964 0.836166 0.738449
0.793083 0.731653 0.615760
0.794572 0.733366 0.617770
0.796061 0.735078 0.619780
0.797550 0.736790 0.621790
0.799039 0.738503 0.623801
0.800528 0.740215 0.625811
0.802017 0.741927 0.627821
0.803506 0.743639 0.629831
0.804995 0.745352 0.631841
0.806484 0.747064 0.633851
0.807973 0.748776 0.635861
0.809462 0.750489 0.637871
0.810951 0.752201 0.639881
0.812439 0.753913 0.641891
0.813928 0.755626 0.643901
0.815417 0.757338 0.645911
0.816906 0.759050 0.647922
0.818395 0.760762 0.649932
0.819884 0.762475 0.651942
0.821373 0.764187 0.653952
0.822862 0.765899 0.655962
0.824351 0.767612 0.657972
0.825840 0.769324 0.659982
0.827329 0.771036 0.661992
0.828818 0.772748 0.664002
0.830307 0.774461 0.666012
0.831796 0.776173 0.668022
0.833285 0.777885 0.670032
0.834774 0.779598 0.672043
0.836263 0.781310 0.674053
0.837752 0.783022 0.676063
0.839241 0.784735 0.678073
0.840730 0.786447 0.680083
0.842218 0.788159 0.682093
0.843707 0.789871 0.684103
0.845196 0.791584 0.686113
0.846685 0.793296 0.688123
0.848174 0.795008 0.690133
0.849663 0.796721 0.692143
0.851152 0.798433 0.694154
0.852641 0.800145 0.696164
0.854130 0.801857 0.698174
0.855619 0.803570 0.700184
0.857108 0.805282 0.702194
0.858597 0.806994 0.704204
0.860086 0.808707 0.706214
0.861575 0.810419 0.708224
0.863064 0.812131 0.710234
0.864553 0.813844 0.712244
0.866042 0.815556 0.714254
0.867531 0.817268 0.716264
0.869020 0.818980 0.718275
0.870509 0.820693 0.720285
0.871998 0.822405 0.722295
0.873486 0.824117 0.724305
0.874975 0.825830 0.726315
0.876464 0.827542 0.728325
0.877953 0.829254 0.730335
0.879442 0.830966 0.732345
0.880931 0.832679 0.734355
0.882420 0.834391 0.736365
0.883909 0.836103 0.738375
0.885398 0.837816 0.740385
0.886887 0.839528 0.742396
0.796006 0.735015 0.619706
0.797495 0.736727 0.621717
0.798984 0.738440 0.623727
0.800473 0.740152 0.625737
0.801962 0.741864 0.627747
0.803451 0.743576 0.629757
0.804940 0.745289 0.631767
0.806429 0.747001 0.633777
0.807918 0.748713 0.635787
0.809407 0.750426 0.637797
0.810896 0.752138 0.639807
0.812385 0.753850 0.641817
0.813874 0.755563 0.643827
0.815363 0.757275 0.645838
0.816852 0.758987 0.647848
0.818340 0.760699 0.649858
0.819829 0.762412 0.651868
0.821318 0.764124 0.653878
0.822807 0.765836 0.655888
0.824296 0.767549 0.657898
0.825785 0.769261 0.659908
0.827274 0.770973 0.661918
0.828763 0.772685 0.663928
0.830252 0.774398 0.665938
0.831741 0.776110 0.667948
0.833230 0.777822 0.669959
0.834719 0.779535 0.671969
0.836208 0.781247 0.673979
0.837697 0.782959 0.675989
0.839186 0.784672 0.677999
0.840675 0.786384 0.680009
0.842164 0.788096 0.682019
0.843653 0.789808 0.684029
0.845142 0.791521 0.686039
0.846631 0.793233 0.688049
0.848120 0.794945 0.690059
0.849608 0.796658 0.692069
0.851097 0.798370 0.694080
0.852586 0.800082 0.696090
0.854075 0.801794 0.698100
0.855564 0.803507 0.700110
0.857053 0.805219 0.702120
0.858542 0.806931 0.704130
0.860031 0.808644 0.706140
0.861520 0.810356 0.708150
0.863009 0.812068 0.710160
0.864498 0.813781 0.712170
0.865987 0.815493 0.714180
0.867476 0.817205 0.716190
0.868965 0.818917 0.718201
0.870454 0.820630 0.720211
0.871943 0.822342 0.722221
0.873432 0.824054 0.724231
0.874921 0.825767 0.726241
0.876410 0.827479 0.728251
0.877899 0.829191 0.730261
0.879387 0.830903 0.732271
0.880876 0.832616 0.734281
0.882365 0.834328 0.736291
0.883854 0.836040 0.738301
0.885343 0.837753 0.740311
0.886832 0.839465 0.742322
0.888321 0.841177 0.744332
0.889810 0.842890 0.746342
0.798929 0.738377 0.623653
0.800418 0.740089 0.625663
0.801907 0.741801 0.627673
0.803396 0.743513 0.629683
0.804885 0.745226 0.631693
0.806374 0.746938 0.633703
0.807863 0.748650 0.635713
0.809352 0.750363 0.637723
0.810841 0.752075 0.639733
0.812330 0.753787 0.641743
0.813819 0.755500 0.643754
0.815308 0.757212 0.645764
0.816797 0.758924 0.647774
0.818286 0.760636 0.649784
0.819775 0.762349 0.651794
0.821264 0.764061 0.653804
0.822753 0.765773 0.655814
0.824242 0.767486 0.657824
0.825730 0.769198 0.659834
0.827219 0.770910 0.661844
0.828708 0.772622 0.663854
0.830197 0.774335 0.665864
0.831686 0.776047 0.667875
0.833175 0.777759 0.669885
0.834664 0.779472 0.671895
0.836153 0.781184 0.673905
0.837642 0.782896 0.675915
0.839131 0.784609 0.677925
0.840620 0.786321 0.679935
0.842109 0.788033 0.681945
0.843598 0.789745 0.683955
0.845087 0.791458 0.685965
0.846576 0.793170 0.687975
0.848065 0.794882 0.689985
0.849554 0.796595 0.691996
0.851043 0.798307 0.694006
0.852532 0.800019 0.696016
0.854021 0.801731 0.698026
0.855509 0.803444 0.700036
0.856998 0.805156 0.702046
0.858487 0.806868 0.704056
0.859976 0.808581 0.706066
0.861465 0.810293 0.708076
0.862954 0.812005 0.710086
0.864443 0.813718 0.712096
0.865932 0.815430 0.714106
0.867421 0.817142 0.716117
0.868910 0.818854 0.718127
0.870399 0.820567 0.720137
0.871888 0.822279 0.722147
0.873377 0.823991 0.724157
0.874866 0.825704 0.726167
0.876355 0.827416 0.728177
0.877844 0.829128 0.730187
0.879333 0.830840 0.732197
0.880822 0.832553 0.734207
0.882311 0.834265 0.736217
0.883800 0.835977 0.738227
0.885289 0.837690 0.740238
0.886777 0.839402 0.742248
0.888266 0.841114 0.744258
0.889755 0.842827 0.746268
0.891244 0.844539 0.748278
0.892733 0.846251 0.750288
0.801852 0.741738 0.627599
0.803341 0.743450 0.629609
0.804830 0.745163 0.631619
0.806319 0.746875 0.633629
0.807808 0.748587 0.635639
0.809297 0.750300 0.637649
0.810786 0.752012 0.639659
0.812275 0.753724 0.641669
0.813764 0.755437 0.643680
0.815253 0.757149 0.645690
0.816742 0.758861 0.647700
0.818231 0.760573 0.649710
0.819720 0.762286 0.651720
0.821209 0.763998 0.653730
0.822698 0.765710 0.655740
0.824187 0.767423 0.657750
0.825676 0.769135 0.659760
0.827165 0.770847 0.661770
0.828654 0.772559 0.663780
0.830143 0.774272 0.665790
0.831631 0.775984 0.667801
0.833120 0.777696 0.669811
0.834609 0.779409 0.671821
0.836098 0.781121 0.673831
0.837587 0.782833 0.675841
0.839076 0.784546 0.677851
0.840565 0.786258 0.679861
0.842054 0.787970 0.681871
0.843543 0.789682 0.683881
0.845032 0.791395 0.685891
0.846521 0.793107 0.687901
0.848010 0.794819 0.689911
0.849499 0.796532 0.691922
0.850988 0.798244 0.693932
0.852477 0.799956 0.695942
0.853966 0.801668 0.697952
0.855455 0.803381 0.699962
0.856944 0.805093 0.701972
0.858433 0.806805 0.703982
0.859922 0.808518 0.705992
0.861411 0.810230 0.708002
0.862899 0.811942 0.710012
0.864388 0.813655 0.712022
0.865877 0.815367 0.714032
0.867366 0.817079 0.716043
0.868855 0.818791 0.718053
0.870344 0.820504 0.720063
0.871833 0.822216 0.722073
0.873322 0.823928 0.724083
0.874811 0.825641 0.726093
0.876300 0.827353 0.728103
0.877789 0.829065 0.730113
0.879278 0.830777 0.732123
0.880767 0.832490 0.734133
0.882256 0.834202 0.736143
0.883745 0.835914 0.738154
0.885234 0.837627 0.740164
0.886723 0.839339 0.742174
0.888212 0.841051 0.744184
0.889701 0.842764 0.746194
0.891190 0.844476 0.748204
0.892678 0.846188 0.750214
0.894167 0.847900 0.752224
0.895656 0.849613 0.754234
0.804776 0.745100 0.631545
0.806265 0.746812 0.633555
0.807754 0.748524 0.635565
0.809242 0.750237 0.637575
0.810731 0.751949 0.639585
0.812220 0.753661 0.641596
0.813709 0.755374 0.643606
0.815198 0.757086 0.645616
0.816687 0.758798 0.647626
0.818176 0.760510 0.649636
0.819665 0.762223 0.651646
0.821154 0.763935 0.653656
0.822643 0.765647 0.655666
0.824132 0.767360 0.657676
0.825621 0.769072 0.659686
0.827110 0.770784 0.661696
0.828599 0.772496 0.663706
0.830088 0.774209 0.665717
0.831577 0.775921 0.667727
0.833066 0.777633 0.669737
0.834555 0.779346 0.671747
0.836044 0.781058 0.673757
0.837533 0.782770 0.675767
0.839021 0.784483 0.677777
0.840510 0.786195 0.679787
0.841999 0.787907 0.681797
0.843488 0.789619 0.683807
0.844977 0.791332 0.685817
0.846466 0.793044 0.687827
0.847955 0.794756 0.689838
0.849444 0.796469 0.691848
0.850933 0.798181 0.693858
0.852422 0.799893 0.695868
0.853911 0.801605 0.697878
0.855400 0.803318 0.699888
0.856889 0.805030 0.701898
0.858378 0.806742 0.703908
0.859867 0.808455 0.705918
0.861356 0.810167 0.707928
0.862845 0.811879 0.709938
0.864334 0.813592 0.711948
0.865823 0.815304 0.713959
0.867312 0.817016 0.715969
0.868800 0.818728 0.717979
0.870289 0.820441 0.719989
0.871778 0.822153 0.721999
0.873267 0.823865 0.724009
0.874756 0.825578 0.726019
0.876245 0.827290 0.728029
0.877734 0.829002 0.730039
0.879223 0.830714 0.732049
0.880712 0.832427 0.734059
0.882201 0.834139 0.736069
0.883690 0.835851 0.738080
0.885179 0.837564 0.740090
0.886668 0.839276 0.742100
0.888157 0.840988 0.744110
0.889646 0.842701 0.746120
0.891135 0.844413 0.748130
0.892624 0.846125 0.750140
0.894113 0.847837 0.752150
0.895602 0.849550 0.754160
0.897091 0.851262 0.756170
0.898580 0.852974 0.758180
0.807699 0.748461 0.635491
0.809188 0.750174 0.637501
0.810677 0.751886 0.639511
0.812166 0.753598 0.641522
0.813655 0.755311 0.643532
0.815143 0.757023 0.645542
0.816632 0.758735 0.647552
0.818121 0.760447 0.649562
0.819610 0.762160 0.651572
0.821099 0.763872 0.653582
0.822588 0.765584 0.655592
0.824077 0.767297 0.657602
0.825566 0.769009 0.659612
0.827055 0.770721 0.661622
0.828544 0.772433 0.663632
0.830033 0.774146 0.665643
0.831522 0.775858 0.667653
0.833011 0.777570 0.669663
0.834500 0.779283 0.671673
0.835989 0.780995 0.673683
0.837478 0.782707 0.675693
0.838967 0.784420 0.677703
0.840456 0.786132 0.679713
0.841945 0.787844 0.681723
0.843434 0.789556 0.683733
0.844923 0.791269 0.685743
0.846411 0.792981 0.687754
0.847900 0.794693 0.689764
0.849389 0.796406 0.691774
0.850878 0.798118 0.693784
0.852367 0.799830 0.695794
0.853856 0.801542 0.697804
0.855345 0.803255 0.699814
0.856834 0.804967 0.701824
0.858323 0.806679 0.703834
0.859812 0.808392 0.705844
0.861301 0.810104 0.707854
0.862790 0.811816 0.709864
0.864279 0.813529 0.711875
0.865768 0.815241 0.713885
0.867257 0.816953 0.715895
0.868746 0.818665 0.717905
0.870235 0.820378 0.719915
0.871724 0.822090 0.721925
0.873213 0.823802 0.723935
0.874702 0.825515 0.725945
0.876190 0.827227 0.727955
0.877679 0.828939 0.729965
0.879168 0.830651 0.731975
0.880657 0.832364 0.733985
0.882146 0.834076 0.735996
0.883635 0.835788 0.738006
0.885124 0.837501 0.740016
0.886613 0.839213 0.742026
0.888102 0.840925 0.744036
0.889591 0.842638 0.746046
0.891080 0.844350 0.748056
0.892569 0.846062 0.750066
0.894058 0.847774 0.752076
0.895547 0.849487 0.754086
0.897036 0.851199 0.756096
0.898525 0.852911 0.758106
0.900014 0.854624 0.760117
0.901503 0.856336 0.762127
0.810622 0.751823 0.639438
0.812111 0.753535 0.641448
0.813600 0.755248 0.643458
0.815089 0.756960 0.645468
0.816578 0.758672 0.647478
0.818067 0.760384 0.649488
0.819556 0.762097 0.651498
0.821045 0.763809 0.653508
0.822533 0.765521 0.655518
0.824022 0.767234 0.657528
0.825511 0.768946 0.659538
0.827000 0.770658 0.661548
0.828489 0.772370 0.663559
0.829978 0.774083 0.665569
0.831467 0.775795 0.667579
0.832956 0.777507 0.669589
0.834445 0.779220 0.671599
0.835934 0.780932 0.673609
0.837423 0.782644 0.675619
0.838912 0.784357 0.677629
0.840401 0.786069 0.679639
0.841890 0.787781 0.681649
0.843379 0.789493 0.683659
0.844868 0.791206 0.685669
0.846357 0.792918 0.687680
0.847846 0.794630 0.689690
0.849335 0.796343 0.691700
0.850824 0.798055 0.693710
0.852312 0.799767 0.695720
0.853801 0.801479 0.697730
0.855290 0.803192 0.699740
0.856779 0.804904 0.701750
0.858268 0.806616 0.703760
0.859757 0.808329 0.705770
0.861246 0.810041 0.707780
0.862735 0.811753 0.709790
0.864224 0.813466 0.711801
0.865713 0.815178 0.713811
0.867202 0.816890 0.715821
0.868691 0.818602 0.717831
0.870180 0.820315 0.719841
0.871669 0.822027 0.721851
0.873158 0.823739 0.723861
0.874647 0.825452 0.725871
0.876136 0.827164 0.727881
0.877625 0.828876 0.729891
0.879114 0.830588 0.731901
0.880603 0.832301 0.733911
0.882092 0.834013 0.735922
0.883580 0.835725 0.737932
0.885069 0.837438 0.739942
0.886558 0.839150 0.741952
0.888047 0.840862 0.743962
0.889536 0.842575 0.745972
0.891025 0.844287 0.747982
0.892514 0.845999 0.749992
0.894003 0.847711 0.752002
0.895492 0.849424 0.754012
0.896981 0.851136 0.756022
0.898470 0.852848 0.758032
0.899959 0.854561 0.760043
0.901448 0.856273 0.762053
0.902937 0.857985 0.764063
0.904426 0.859697 0.766073
0.813545 0.755185 0.643384
0.815034 0.756897 0.645394
0.816523 0.758609 0.647404
0.818012 0.760321 0.649414
0.819501 0.762034 0.651424
0.820990 0.763746 0.653434
0.822479 0.765458 0.655444
0.823968 0.767171 0.657454
0.825457 0.768883 0.659464
0.826946 0.770595 0.661475
0.828434 0.772308 0.663485
0.829923 0.774020 0.665495
0.831412 0.775732 0.667505
0.832901 0.777444 0.669515
0.834390 0.779157 0.671525
0.835879 0.780869 0.673535
0.837368 0.782581 0.675545
0.838857 0.784294 0.677555
0.840346 0.786006 0.679565
0.841835 0.787718 0.681575
0.843324 0.789430 0.683585
0.844813 0.791143 0.685596
0.846302 0.792855 0.687606
0.847791 0.794567 0.689616
0.849280 0.796280 0.691626
0.850769 0.797992 0.693636
0.852258 0.799704 0.695646
0.853747 0.801416 0.697656
0.855236 0.803129 0.699666
0.856725 0.804841 0.701676
0.858214 0.806553 0.703686
0.859702 0.808266 0.705696
0.861191 0.809978 0.707706
0.862680 0.811690 0.709717
0.864169 0.813403 0.711727
0.865658 0.815115 0.713737
0.867147 0.816827 0.715747
0.868636 0.818539 0.717757
0.870125 0.820252 0.719767
0.871614 0.821964 0.721777
0.873103 0.823676 0.723787
0.874592 0.825389 0.725797
0.876081 0.827101 0.727807
0.877570 0.828813 0.729817
0.879059 0.830525 0.731827
0.880548 0.832238 0.733838
0.882037 0.833950 0.735848
0.883526 0.835662 0.737858
0.885015 0.837375 0.739868
0.886504 0.839087 0.741878
0.887993 0.840799 0.743888
0.889481 0.842512 0.745898
0.890970 0.844224 0.747908
0.892459 0.845936 0.749918
0.893948 0.847648 0.751928
0.895437 0.849361 0.753938
0.896926 0.851073 0.755948
0.898415 0.852785 0.757959
0.899904 0.854498 0.759969
0.901393 0.856210 0.761979
0.902882 0.857922 0.763989
0.904371 0.859634 0.765999
0.905860 0.861347 0.768009
0.907349 0.863059 0.770019
0.816468 0.758546 0.647330
0.817957 0.760258 0.649340
0.819446 0.761971 0.651350
0.820935 0.763683 0.653360
0.822424 0.765395 0.655370
0.823913 0.767108 0.657380
0.825402 0.768820 0.659390
0.826891 0.770532 0.661401
0.828380 0.772245 0.663411
0.829869 0.773957 0.665421
0.831358 0.775669 0.667431
0.832847 0.777381 0.669441
0.834336 0.779094 0.671451
0.835824 0.780806 0.673461
0.837313 0.782518 0.675471
0.838802 0.784231 0.677481
0.840291 0.785943 0.679491
0.841780 0.787655 0.681501
0.843269 0.789367 0.683511
0.844758 0.791080 0.685522
0.846247 0.792792 0.687532
0.847736 0.794504 0.689542
0.849225 0.796217 0.691552
0.850714 0.797929 0.693562
0.852203 0.799641 0.695572
0.853692 0.801354 0.697582
0.855181 0.803066 0.699592
0.856670 0.804778 0.701602
0.858159 0.806490 0.703612
0.859648 0.808203 0.705622
0.861137 0.809915 0.707632
0.862626 0.811627 0.709643
0.864115 0.813340 0.711653
0.865603 0.815052 0.713663
0.867092 0.816764 0.715673
0.868581 0.818476 0.717683
0.870070 0.820189 0.719693
0.871559 0.821901 0.721703
0.873048 0.823613 0.723713
0.874537 0.825326 0.725723
0.876026 0.827038 0.727733
0.877515 0.828750 0.729743
0.879004 0.830462 0.731754
0.880493 0.832175 0.733764
0.881982 0.833887 0.735774
0.883471 0.835599 0.737784
0.884960 0.837312 0.739794
0.886449 0.839024 0.741804
0.887938 0.840736 0.743814
0.889427 0.842449 0.745824
0.890916 0.844161 0.747834
0.892405 0.845873 0.749844
0.893894 0.847585 0.751854
0.895383 0.849298 0.753864
0.896871 0.851010 0.755875
0.898360 0.852722 0.757885
0.899849 0.854435 0.759895
0.901338 0.856147 0.761905
0.902827 0.857859 0.763915
0.904316 0.859571 0.765925
0.905805 0.861284 0.767935
0.907294 0.862996 0.769945
0.908783 0.864708 0.771955
0.910272 0.866421 0.773965
0.819391 0.761908 0.651276
0.820880 0.763620 0.653286
0.822369 0.765332 0.655296
0.823858 0.767045 0.657306
0.825347 0.768757 0.659317
0.826836 0.770469 0.661327
0.828325 0.772182 0.663337
0.829814 0.773894 0.665347
0.831303 0.775606 0.667357
0.832792 0.777318 0.669367
0.834281 0.779031 0.671377
0.835770 0.780743 0.673387
0.837259 0.782455 0.675397
0.838748 0.784168 0.677407
0.840237 0.785880 0.679417
0.841725 0.787592 0.681427
0.843214 0.789304 0.683438
0.844703 0.791017 0.685448
0.846192 0.792729 0.687458
0.847681 0.794441 0.689468
0.849170 0.796154 0.691478
0.850659 0.797866 0.693488
0.852148 0.799578 0.695498
0.853637 0.801291 0.697508
0.855126 0.803003 0.699518
0.856615 0.804715 0.701528
0.858104 0.806427 0.703538
0.859593 0.808140 0.705548
0.861082 0.809852 0.707559
0.862571 0.811564 0.709569
0.864060 0.813277 0.711579
0.865549 0.814989 0.713589
0.867038 0.816701 0.715599
0.868527 0.818413 0.717609
0.870016 0.820126 0.719619
0.871505 0.821838 0.721629
0.872993 0.823550 0.723639
0.874482 0.825263 0.725649
0.875971 0.826975 0.727659
0.877460 0.828687 0.729669
0.878949 0.830400 0.731680
0.880438 0.832112 0.733690
0.881927 0.833824 0.735700
0.883416 0.835536 0.737710
0.884905 0.837249 0.739720
0.886394 0.838961 0.741730
0.887883 0.840673 0.743740
0.889372 0.842386 0.745750
0.890861 0.844098 0.747760
0.892350 0.845810 0.749770
0.893839 0.847522 0.751780
0.895328 0.849235 0.753790
0.896817 0.850947 0.755801
0.898306 0.852659 0.757811
0.899795 0.854372 0.759821
0.901284 0.856084 0.761831
0.902772 0.857796 0.763841
0.904261 0.859508 0.765851
0.905750 0.861221 0.767861
0.907239 0.862933 0.769871
0.908728 0.864645 0.771881
0.910217 0.866358 0.773891
0.911706 0.868070 0.775901
0.913195 0.869782 0.777911
0.822314 0.765269 0.655222
0.823803 0.766982 0.657232
0.825292 0.768694 0.659243
0.826781 0.770406 0.661253
0.828270 0.772119 0.663263
0.829759 0.773831 0.665273
0.831248 0.775543 0.667283
0.832737 0.777255 0.669293
0.834226 0.778968 0.671303
0.835715 0.780680 0.673313
0.837204 0.782392 0.675323
0.838693 0.784105 0.677333
0.840182 0.785817 0.679343
0.841671 0.787529 0.681354
0.843160 0.789241 0.683364
0.844649 0.790954 0.685374
0.846138 0.792666 0.687384
0.847627 0.794378 0.689394
0.849115 0.796091 0.691404
0.850604 0.797803 0.693414
0.852093 0.799515 0.695424
0.853582 0.801228 0.697434
0.855071 0.802940 0.699444
0.856560 0.804652 0.701454
0.858049 0.806364 0.703464
0.859538 0.808077 0.705475
0.861027 0.809789 0.707485
0.862516 0.811501 0.709495
0.864005 0.813214 0.711505
0.865494 0.814926 0.713515
0.866983 0.816638 0.715525
0.868472 0.818350 0.717535
0.869961 0.820063 0.719545
0.871450 0.821775 0.721555
0.872939 0.823487 0.723565
0.874428 0.825200 0.725575
0.875917 0.826912 0.727585
0.877406 0.828624 0.729596
0.878894 0.830337 0.731606
0.880383 0.832049 0.733616
0.881872 0.833761 0.735626
0.883361 0.835473 0.737636
0.884850 0.837186 0.739646
0.886339 0.838898 0.741656
0.887828 0.840610 0.743666
0.889317 0.842323 0.745676
0.890806 0.844035 0.747686
0.892295 0.845747 0.749696
0.893784 0.847459 0.751706
0.895273 0.849172 0.753717
