tools/brand-treatment/luts/parallax_editorial.cube
# Parallax Meridian Brand Treatment — editorial ramp
# Desaturation: 25% of original
# Duotone: #C8B89A → #F0E6D0 → #F5F0E8
TITLE "Parallax Editorial"
LUT_3D_SIZE 8
0.784314 0.721569 0.603922
0.797714 0.736979 0.622012
0.811115 0.752390 0.640103
0.824515 0.767801 0.658194
0.837916 0.783211 0.676285
0.851317 0.798622 0.694375
0.864717 0.814032 0.712466
0.878118 0.829443 0.730557
0.810622 0.751823 0.639438
0.824022 0.767234 0.657528
0.837423 0.782644 0.675619
0.850824 0.798055 0.693710
0.864224 0.813466 0.711801
0.877625 0.828876 0.729891
0.891025 0.844287 0.747982
0.904426 0.859697 0.766073
0.836930 0.782077 0.674954
0.850331 0.797488 0.693044
0.863731 0.812899 0.711135
0.877132 0.828309 0.729226
0.890532 0.843720 0.747317
0.903933 0.859131 0.765407
0.917333 0.874541 0.783498
0.930734 0.889952 0.801589
0.863238 0.812332 0.710469
0.876639 0.827742 0.728560
0.890039 0.843153 0.746651
0.903440 0.858564 0.764742
0.916840 0.873974 0.782832
0.930241 0.889385 0.800923
0.941485 0.902577 0.817165
0.943160 0.905927 0.825206
0.889546 0.842586 0.745985
0.902947 0.857997 0.764076
0.916347 0.873407 0.782167
0.929748 0.888818 0.800258
0.941423 0.902454 0.816869
0.943098 0.905804 0.824910
0.944773 0.909154 0.832950
0.946448 0.912504 0.840990
0.915854 0.872840 0.781501
0.929255 0.888251 0.799592
0.941361 0.902331 0.816574
0.943036 0.905681 0.824614
0.944711 0.909031 0.832654
0.946387 0.912381 0.840695
0.948062 0.915731 0.848735
0.949737 0.919081 0.856775
0.941300 0.902207 0.816278
0.942975 0.905557 0.824318
0.944650 0.908908 0.832359
0.946325 0.912258 0.840399
0.948000 0.915608 0.848439
0.949675 0.918958 0.856480
0.951350 0.922308 0.864520
0.953025 0.925658 0.872560
0.944588 0.908784 0.832063
0.946263 0.912134 0.840103
0.947938 0.915485 0.848143
0.949613 0.918835 0.856184
0.951289 0.922185 0.864224
0.952964 0.925535 0.872264
0.954639 0.928885 0.880305
0.956314 0.932235 0.888345
0.789423 0.727444 0.610819
0.802824 0.742855 0.628910
0.816224 0.758266 0.647001
0.829625 0.773676 0.665091
0.843025 0.789087 0.683182
0.856426 0.804497 0.701273
0.869826 0.819908 0.719364
0.883227 0.835319 0.737454
0.815731 0.757699 0.646335
0.829132 0.773109 0.664426
0.842532 0.788520 0.682517
0.855933 0.803931 0.700607
0.869333 0.819341 0.718698
0.882734 0.834752 0.736789
0.896134 0.850162 0.754880
0.909535 0.865573 0.772970
0.842039 0.787953 0.681851
0.855440 0.803364 0.699942
0.868840 0.818774 0.718032
0.882241 0.834185 0.736123
0.895641 0.849596 0.754214
0.909042 0.865006 0.772305
0.922443 0.880417 0.790396
0.935843 0.895827 0.808486
0.868347 0.818207 0.717367
0.881748 0.833618 0.735458
0.895148 0.849029 0.753548
0.908549 0.864439 0.771639
0.921950 0.879850 0.789730
0.935350 0.895261 0.807821
0.942123 0.903854 0.820231
0.943798 0.907204 0.828271
0.894655 0.848462 0.752883
0.908056 0.863872 0.770974
0.921457 0.879283 0.789064
0.934857 0.894694 0.807155
0.942062 0.903731 0.819935
0.943737 0.907081 0.827975
0.945412 0.910431 0.836016
0.947087 0.913782 0.844056
0.920964 0.878716 0.788399
0.934364 0.894127 0.806490
0.942000 0.903608 0.819639
0.943675 0.906958 0.827680
0.945350 0.910308 0.835720
0.947025 0.913658 0.843760
0.948700 0.917008 0.851801
0.950375 0.920359 0.859841
0.941938 0.903485 0.819343
0.943613 0.906835 0.827384
0.945289 0.910185 0.835424
0.946964 0.913535 0.843464
0.948639 0.916885 0.851505
0.950314 0.920235 0.859545
0.951989 0.923585 0.867585
0.953664 0.926936 0.875626
0.945227 0.910062 0.835128
0.946902 0.913412 0.843169
0.948577 0.916762 0.851209
0.950252 0.920112 0.859249
0.951927 0.923462 0.867290
0.953602 0.926812 0.875330
0.955277 0.930162 0.883370
0.956952 0.933513 0.891411
0.794532 0.733320 0.617717
0.807933 0.748731 0.635807
0.821333 0.764141 0.653898
0.834734 0.779552 0.671989
0.848134 0.794962 0.690080
0.861535 0.810373 0.708170
0.874936 0.825784 0.726261
0.888336 0.841194 0.744352
0.820840 0.763574 0.653232
0.834241 0.778985 0.671323
0.847641 0.794396 0.689414
0.861042 0.809806 0.707505
0.874443 0.825217 0.725596
0.887843 0.840627 0.743686
0.901244 0.856038 0.761777
0.914644 0.871449 0.779868
0.847148 0.793829 0.688748
0.860549 0.809239 0.706839
0.873950 0.824650 0.724930
0.887350 0.840061 0.743021
0.900751 0.855471 0.761111
0.914151 0.870882 0.779202
0.927552 0.886292 0.797293
0.940952 0.901703 0.815384
0.873457 0.824083 0.724264
0.886857 0.839494 0.742355
0.900258 0.854904 0.760446
0.913658 0.870315 0.778537
0.927059 0.885725 0.796627
0.940459 0.901136 0.814718
0.942762 0.905132 0.823296
0.944437 0.908482 0.831337
0.899765 0.854337 0.759780
0.913165 0.869748 0.777871
0.926566 0.885159 0.795962
0.939966 0.900569 0.814053
0.942700 0.905008 0.823001
0.944375 0.908359 0.831041
0.946050 0.911709 0.839081
0.947725 0.915059 0.847122
0.926073 0.884592 0.795296
0.939473 0.900002 0.813387
0.942639 0.904885 0.822705
0.944314 0.908235 0.830745
0.945989 0.911585 0.838785
0.947664 0.914936 0.846826
0.949339 0.918286 0.854866
0.951014 0.921636 0.862906
0.942577 0.904762 0.822409
0.944252 0.908112 0.830449
0.945927 0.911462 0.838490
0.947602 0.914812 0.846530
0.949277 0.918162 0.854570
0.950952 0.921513 0.862611
0.952627 0.924863 0.870651
0.954303 0.928213 0.878691
0.945866 0.911339 0.838194
0.947541 0.914689 0.846234
0.949216 0.918039 0.854275
0.950891 0.921389 0.862315
0.952566 0.924739 0.870355
0.954241 0.928090 0.878396
0.955916 0.931440 0.886436
0.957591 0.934790 0.894476
0.799641 0.739196 0.624614
0.813042 0.754606 0.642705
0.826443 0.770017 0.660796
0.839843 0.785427 0.678886
0.853244 0.800838 0.696977
0.866644 0.816249 0.715068
0.880045 0.831659 0.733159
0.893445 0.847070 0.751249
0.825950 0.769450 0.660130
0.839350 0.784861 0.678221
0.852751 0.800271 0.696311
0.866151 0.815682 0.714402
0.879552 0.831092 0.732493
0.892952 0.846503 0.750584
0.906353 0.861914 0.768675
0.919754 0.877324 0.786765
0.852258 0.799704 0.695646
0.865658 0.815115 0.713737
0.879059 0.830525 0.731827
0.892459 0.845936 0.749918
0.905860 0.861347 0.768009
0.919261 0.876757 0.786100
0.932661 0.892168 0.804190
0.941787 0.903182 0.818617
0.878566 0.829959 0.731162
0.891966 0.845369 0.749253
0.905367 0.860780 0.767343
0.918768 0.876190 0.785434
0.932168 0.891601 0.803525
0.941725 0.903059 0.818322
0.943401 0.906409 0.826362
0.945076 0.909759 0.834402
0.904874 0.860213 0.766678
0.918275 0.875624 0.784769
0.931675 0.891034 0.802859
0.941664 0.902936 0.818026
0.943339 0.906286 0.826066
0.945014 0.909636 0.834106
0.946689 0.912986 0.842147
0.948364 0.916336 0.850187
0.931182 0.890467 0.802194
0.941602 0.902812 0.817730
0.943277 0.906162 0.825770
0.944952 0.909513 0.833811
0.946627 0.912863 0.841851
0.948303 0.916213 0.849891
0.949978 0.919563 0.857932
0.951653 0.922913 0.865972
0.943216 0.906039 0.825475
0.944891 0.909389 0.833515
0.946566 0.912739 0.841555
0.948241 0.916090 0.849596
0.949916 0.919440 0.857636
0.951591 0.922790 0.865676
0.953266 0.926140 0.873717
0.954941 0.929490 0.881757
0.946504 0.912616 0.841259
0.948179 0.915966 0.849300
0.949854 0.919317 0.857340
0.951529 0.922667 0.865380
0.953204 0.926017 0.873421
0.954880 0.929367 0.881461
0.956555 0.932717 0.889501
0.958230 0.936067 0.897542
0.804751 0.745071 0.631511
0.818151 0.760482 0.649602
0.831552 0.775892 0.667693
0.844952 0.791303 0.685784
0.858353 0.806714 0.703875
0.871754 0.822124 0.721965
0.885154 0.837535 0.740056
0.898555 0.852946 0.758147
0.831059 0.775325 0.667027
0.844459 0.790736 0.685118
0.857860 0.806147 0.703209
0.871261 0.821557 0.721300
0.884661 0.836968 0.739390
0.898062 0.852379 0.757481
0.911462 0.867789 0.775572
0.924863 0.883200 0.793663
0.857367 0.805580 0.702543
0.870768 0.820990 0.720634
0.884168 0.836401 0.738725
0.897569 0.851812 0.756816
0.910969 0.867222 0.774906
0.924370 0.882633 0.792997
0.937770 0.898044 0.811088
0.942426 0.904459 0.821683
0.883675 0.835834 0.738059
0.897076 0.851245 0.756150
0.910476 0.866655 0.774241
0.923877 0.882066 0.792332
0.937277 0.897477 0.810422
0.942364 0.904336 0.821387
0.944039 0.907686 0.829427
0.945714 0.911036 0.837468
0.909983 0.866089 0.773575
0.923384 0.881499 0.791666
0.936784 0.896910 0.809757
0.942303 0.904213 0.821091
0.943978 0.907563 0.829132
0.945653 0.910913 0.837172
0.947328 0.914263 0.845212
0.949003 0.917613 0.853253
0.936291 0.896343 0.809091
0.942241 0.904090 0.820796
0.943916 0.907440 0.828836
0.945591 0.910790 0.836876
0.947266 0.914140 0.844917
0.948941 0.917490 0.852957
0.950616 0.920840 0.860997
0.952291 0.924190 0.869038
0.943854 0.907317 0.828540
0.945529 0.910667 0.836580
0.947204 0.914017 0.844621
0.948880 0.917367 0.852661
0.950555 0.920717 0.860701
0.952230 0.924067 0.868742
0.953905 0.927417 0.876782
0.955580 0.930768 0.884822
0.947143 0.913894 0.844325
0.948818 0.917244 0.852365
0.950493 0.920594 0.860406
0.952168 0.923944 0.868446
0.953843 0.927294 0.876486
0.955518 0.930644 0.884527
0.957193 0.933994 0.892567
0.958868 0.937345 0.900607
0.809860 0.750947 0.638409
0.823261 0.766357 0.656500
0.836661 0.781768 0.674590
0.850062 0.797179 0.692681
0.863462 0.812589 0.710772
0.876863 0.828000 0.728863
0.890263 0.843411 0.746954
0.903664 0.858821 0.765044
0.836168 0.781201 0.673925
0.849569 0.796612 0.692016
0.862969 0.812022 0.710106
0.876370 0.827433 0.728197
0.889770 0.842844 0.746288
0.903171 0.858254 0.764379
0.916571 0.873665 0.782469
0.929972 0.889076 0.800560
0.862476 0.811455 0.709441
0.875877 0.826866 0.727532
0.889277 0.842277 0.745622
0.902678 0.857687 0.763713
0.916078 0.873098 0.781804
0.929479 0.888509 0.799895
0.941389 0.902387 0.816708
0.943064 0.905737 0.824748
0.888784 0.841710 0.744957
0.902185 0.857120 0.763048
0.915585 0.872531 0.781138
0.928986 0.887942 0.799229
0.941328 0.902263 0.816412
0.943003 0.905613 0.824453
0.944678 0.908964 0.832493
0.946353 0.912314 0.840533
0.915092 0.871964 0.780473
0.928493 0.887375 0.798564
0.941266 0.902140 0.816117
0.942941 0.905490 0.824157
0.944616 0.908840 0.832197
0.946291 0.912190 0.840238
0.947966 0.915541 0.848278
0.949641 0.918891 0.856318
0.941204 0.902017 0.815821
0.942880 0.905367 0.823861
0.944555 0.908717 0.831901
0.946230 0.912067 0.839942
0.947905 0.915417 0.847982
0.949580 0.918768 0.856022
0.951255 0.922118 0.864063
0.952930 0.925468 0.872103
0.944493 0.908594 0.831606
0.946168 0.911944 0.839646
0.947843 0.915294 0.847686
0.949518 0.918644 0.855727
0.951193 0.921994 0.863767
0.952868 0.925345 0.871807
0.954543 0.928695 0.879848
0.956218 0.932045 0.887888
0.947782 0.915171 0.847390
0.949457 0.918521 0.855431
0.951132 0.921871 0.863471
0.952807 0.925221 0.871511
0.954482 0.928571 0.879552
0.956157 0.931922 0.887592
0.957832 0.935272 0.895632
0.959507 0.938622 0.903673
0.814969 0.756822 0.645306
0.828370 0.772233 0.663397
0.841770 0.787644 0.681488
0.855171 0.803054 0.699579
0.868571 0.818465 0.717669
0.881972 0.833876 0.735760
0.895373 0.849286 0.753851
0.908773 0.864697 0.771942
0.841277 0.787077 0.680822
0.854678 0.802487 0.698913
0.868078 0.817898 0.717004
0.881479 0.833309 0.735095
0.894880 0.848719 0.753185
0.908280 0.864130 0.771276
0.921681 0.879541 0.789367
0.935081 0.894951 0.807458
0.867585 0.817331 0.716338
0.880986 0.832742 0.734429
0.894387 0.848152 0.752520
0.907787 0.863563 0.770611
0.921188 0.878974 0.788701
0.934588 0.894384 0.806792
0.942028 0.903664 0.819774
0.943703 0.907014 0.827814
0.893894 0.847585 0.751854
0.907294 0.862996 0.769945
0.920695 0.878407 0.788036
0.934095 0.893817 0.806127
0.941966 0.903541 0.819478
0.943641 0.906891 0.827518
0.945317 0.910241 0.835559
0.946992 0.913591 0.843599
0.920202 0.877840 0.787370
0.933602 0.893250 0.805461
0.941905 0.903417 0.819182
0.943580 0.906768 0.827222
0.945255 0.910118 0.835263
0.946930 0.913468 0.843303
0.948605 0.916818 0.851343
0.950280 0.920168 0.859384
0.941843 0.903294 0.818886
0.943518 0.906644 0.826927
0.945193 0.909994 0.834967
0.946868 0.913345 0.843007
0.948543 0.916695 0.851048
0.950218 0.920045 0.859088
0.951894 0.923395 0.867128
0.953569 0.926745 0.875169
0.945132 0.909871 0.834671
0.946807 0.913221 0.842711
0.948482 0.916571 0.850752
0.950157 0.919922 0.858792
0.951832 0.923272 0.866832
0.953507 0.926622 0.874873
0.955182 0.929972 0.882913
0.956857 0.933322 0.890954
0.948420 0.916448 0.850456
0.950095 0.919798 0.858496
0.951770 0.923148 0.866537
0.953445 0.926499 0.874577
0.955120 0.929849 0.882617
0.956796 0.933199 0.890658
0.958471 0.936549 0.898698
0.960146 0.939899 0.906738
0.820078 0.762698 0.652204
0.833479 0.778109 0.670295
0.846880 0.793519 0.688385
0.860280 0.808930 0.706476
0.873681 0.824341 0.724567
0.887081 0.839751 0.742658
0.900482 0.855162 0.760748
0.913882 0.870573 0.778839
0.846387 0.792952 0.687720
0.859787 0.808363 0.705811
0.873188 0.823774 0.723901
0.886588 0.839184 0.741992
0.899989 0.854595 0.760083
0.913389 0.870006 0.778174
0.926790 0.885416 0.796264
0.940190 0.900827 0.814355
0.872695 0.823207 0.723236
0.886095 0.838617 0.741327
0.899496 0.854028 0.759417
0.912896 0.869439 0.777508
0.926297 0.884849 0.795599
0.939697 0.900260 0.813690
0.942667 0.904941 0.822839
0.944342 0.908291 0.830880
0.899003 0.853461 0.758752
0.912403 0.868872 0.776843
0.925804 0.884282 0.794933
0.939204 0.899693 0.813024
0.942605 0.904818 0.822543
0.944280 0.908168 0.830584
0.945955 0.911518 0.838624
0.947630 0.914868 0.846664
0.925311 0.883715 0.794268
0.938711 0.899126 0.812359
0.942543 0.904695 0.822248
0.944218 0.908045 0.830288
0.945894 0.911395 0.838328
0.947569 0.914745 0.846369
0.949244 0.918095 0.854409
0.950919 0.921445 0.862449
0.942482 0.904571 0.821952
0.944157 0.907922 0.829992
0.945832 0.911272 0.838032
0.947507 0.914622 0.846073
0.949182 0.917972 0.854113
0.950857 0.921322 0.862154
0.952532 0.924672 0.870194
0.954207 0.928022 0.878234
0.945770 0.911148 0.837737
0.947445 0.914499 0.845777
0.949120 0.917849 0.853817
0.950796 0.921199 0.861858
0.952471 0.924549 0.869898
0.954146 0.927899 0.877938
0.955821 0.931249 0.885979
0.957496 0.934599 0.894019
0.949059 0.917725 0.853522
0.950734 0.921076 0.861562
0.952409 0.924426 0.869602
0.954084 0.927776 0.877643
0.955759 0.931126 0.885683
0.957434 0.934476 0.893723
0.959109 0.937826 0.901764
0.960784 0.941176 0.909804
