tools/brand-treatment/luts/parallax_conflict.cube
# Parallax Meridian Brand Treatment — conflict ramp
# Desaturation: 25% of original
# Duotone: #1C1814 → #7A2E1A → #A64D46
TITLE "Parallax Conflict"
LUT_3D_SIZE 64
0.109804 0.094118 0.078431
0.113303 0.094937 0.078655
0.116802 0.095755 0.078878
0.120301 0.096574 0.079101
0.123800 0.097393 0.079325
0.127299 0.098212 0.079548
0.130798 0.099031 0.079771
0.134297 0.099850 0.079995
0.137796 0.100669 0.080218
0.141295 0.101488 0.080441
0.144794 0.102307 0.080665
0.148293 0.103126 0.080888
0.151792 0.103945 0.081111
0.155291 0.104764 0.081335
0.158790 0.105583 0.081558
0.162289 0.106401 0.081782
0.165788 0.107220 0.082005
0.169288 0.108039 0.082228
0.172787 0.108858 0.082452
0.176286 0.109677 0.082675
0.179785 0.110496 0.082898
0.183284 0.111315 0.083122
0.186783 0.112134 0.083345
0.190282 0.112953 0.083568
0.193781 0.113772 0.083792
0.197280 0.114591 0.084015
0.200779 0.115410 0.084238
0.204278 0.116229 0.084462
0.207777 0.117047 0.084685
0.211276 0.117866 0.084908
0.214775 0.118685 0.085132
0.218274 0.119504 0.085355
0.221773 0.120323 0.085578
0.225272 0.121142 0.085802
0.228771 0.121961 0.086025
0.232270 0.122780 0.086248
0.235769 0.123599 0.086472
0.239268 0.124418 0.086695
0.242767 0.125237 0.086918
0.246266 0.126056 0.087142
0.249765 0.126875 0.087365
0.253264 0.127693 0.087588
0.256763 0.128512 0.087812
0.260262 0.129331 0.088035
0.263761 0.130150 0.088258
0.267261 0.130969 0.088482
0.270760 0.131788 0.088705
0.274259 0.132607 0.088928
0.277758 0.133426 0.089152
0.281257 0.134245 0.089375
0.284756 0.135064 0.089599
0.288255 0.135883 0.089822
0.291754 0.136702 0.090045
0.295253 0.137521 0.090269
0.298752 0.138339 0.090492
0.302251 0.139158 0.090715
0.305750 0.139977 0.090939
0.309249 0.140796 0.091162
0.312748 0.141615 0.091385
0.316247 0.142434 0.091609
0.319746 0.143253 0.091832
0.323245 0.144072 0.092055
0.326744 0.144891 0.092279
0.330243 0.145710 0.092502
0.116673 0.095725 0.078870
0.120172 0.096544 0.079093
0.123671 0.097363 0.079317
0.127170 0.098182 0.079540
0.130669 0.099001 0.079763
0.134168 0.099820 0.079987
0.137667 0.100639 0.080210
0.141167 0.101458 0.080433
0.144666 0.102277 0.080657
0.148165 0.103096 0.080880
0.151664 0.103915 0.081103
0.155163 0.104734 0.081327
0.158662 0.105552 0.081550
0.162161 0.106371 0.081773
0.165660 0.107190 0.081997
0.169159 0.108009 0.082220
0.172658 0.108828 0.082443
0.176157 0.109647 0.082667
0.179656 0.110466 0.082890
0.183155 0.111285 0.083113
0.186654 0.112104 0.083337
0.190153 0.112923 0.083560
0.193652 0.113742 0.083783
0.197151 0.114561 0.084007
0.200650 0.115380 0.084230
0.204149 0.116198 0.084453
0.207648 0.117017 0.084677
0.211147 0.117836 0.084900
0.214646 0.118655 0.085123
0.218145 0.119474 0.085347
0.221644 0.120293 0.085570
0.225143 0.121112 0.085793
0.228642 0.121931 0.086017
0.232141 0.122750 0.086240
0.235640 0.123569 0.086463
0.239139 0.124388 0.086687
0.242639 0.125207 0.086910
0.246138 0.126026 0.087134
0.249637 0.126844 0.087357
0.253136 0.127663 0.087580
0.256635 0.128482 0.087804
0.260134 0.129301 0.088027
0.263633 0.130120 0.088250
0.267132 0.130939 0.088474
0.270631 0.131758 0.088697
0.274130 0.132577 0.088920
0.277629 0.133396 0.089144
0.281128 0.134215 0.089367
0.284627 0.135034 0.089590
0.288126 0.135853 0.089814
0.291625 0.136672 0.090037
0.295124 0.137490 0.090260
0.298623 0.138309 0.090484
0.302122 0.139128 0.090707
0.305621 0.139947 0.090930
0.309120 0.140766 0.091154
0.312619 0.141585 0.091377
0.316118 0.142404 0.091600
0.319617 0.143223 0.091824
0.323116 0.144042 0.092047
0.326615 0.144861 0.092270
0.330114 0.145680 0.092494
0.333613 0.146499 0.092717
0.337112 0.147318 0.092940
0.123543 0.097333 0.079308
0.127042 0.098152 0.079532
0.130541 0.098971 0.079755
0.134040 0.099790 0.079978
0.137539 0.100609 0.080202
0.141038 0.101428 0.080425
0.144537 0.102247 0.080648
0.148036 0.103066 0.080872
0.151535 0.103884 0.081095
0.155034 0.104703 0.081318
0.158533 0.105522 0.081542
0.162032 0.106341 0.081765
0.165531 0.107160 0.081988
0.169030 0.107979 0.082212
0.172529 0.108798 0.082435
0.176028 0.109617 0.082658
0.179527 0.110436 0.082882
0.183026 0.111255 0.083105
0.186525 0.112074 0.083328
0.190024 0.112893 0.083552
0.193523 0.113712 0.083775
0.197022 0.114530 0.083999
0.200521 0.115349 0.084222
0.204020 0.116168 0.084445
0.207519 0.116987 0.084669
0.211018 0.117806 0.084892
0.214518 0.118625 0.085115
0.218017 0.119444 0.085339
0.221516 0.120263 0.085562
0.225015 0.121082 0.085785
0.228514 0.121901 0.086009
0.232013 0.122720 0.086232
0.235512 0.123539 0.086455
0.239011 0.124358 0.086679
0.242510 0.125176 0.086902
0.246009 0.125995 0.087125
0.249508 0.126814 0.087349
0.253007 0.127633 0.087572
0.256506 0.128452 0.087795
0.260005 0.129271 0.088019
0.263504 0.130090 0.088242
0.267003 0.130909 0.088465
0.270502 0.131728 0.088689
0.274001 0.132547 0.088912
0.277500 0.133366 0.089135
0.280999 0.134185 0.089359
0.284498 0.135004 0.089582
0.287997 0.135822 0.089805
0.291496 0.136641 0.090029
0.294995 0.137460 0.090252
0.298494 0.138279 0.090475
0.301993 0.139098 0.090699
0.305492 0.139917 0.090922
0.308991 0.140736 0.091145
0.312491 0.141555 0.091369
0.315990 0.142374 0.091592
0.319489 0.143193 0.091815
0.322988 0.144012 0.092039
0.326487 0.144831 0.092262
0.329986 0.145650 0.092486
0.333485 0.146468 0.092709
0.336984 0.147287 0.092932
0.340483 0.148106 0.093156
0.343982 0.148925 0.093379
0.130412 0.098941 0.079747
0.133911 0.099760 0.079970
0.137410 0.100579 0.080193
0.140909 0.101398 0.080417
0.144408 0.102216 0.080640
0.147907 0.103035 0.080863
0.151406 0.103854 0.081087
0.154905 0.104673 0.081310
0.158404 0.105492 0.081534
0.161903 0.106311 0.081757
0.165402 0.107130 0.081980
0.168901 0.107949 0.082204
0.172400 0.108768 0.082427
0.175899 0.109587 0.082650
0.179398 0.110406 0.082874
0.182897 0.111225 0.083097
0.186397 0.112044 0.083320
0.189896 0.112862 0.083544
0.193395 0.113681 0.083767
0.196894 0.114500 0.083990
0.200393 0.115319 0.084214
0.203892 0.116138 0.084437
0.207391 0.116957 0.084660
0.210890 0.117776 0.084884
0.214389 0.118595 0.085107
0.217888 0.119414 0.085330
0.221387 0.120233 0.085554
0.224886 0.121052 0.085777
0.228385 0.121871 0.086000
0.231884 0.122690 0.086224
0.235383 0.123508 0.086447
0.238882 0.124327 0.086670
0.242381 0.125146 0.086894
0.245880 0.125965 0.087117
0.249379 0.126784 0.087340
0.252878 0.127603 0.087564
0.256377 0.128422 0.087787
0.259876 0.129241 0.088010
0.263375 0.130060 0.088234
0.266874 0.130879 0.088457
0.270373 0.131698 0.088680
0.273872 0.132517 0.088904
0.277371 0.133336 0.089127
0.280870 0.134154 0.089351
0.284369 0.134973 0.089574
0.287869 0.135792 0.089797
0.291368 0.136611 0.090021
0.294867 0.137430 0.090244
0.298366 0.138249 0.090467
0.301865 0.139068 0.090691
0.305364 0.139887 0.090914
0.308863 0.140706 0.091137
0.312362 0.141525 0.091361
0.315861 0.142344 0.091584
0.319360 0.143163 0.091807
0.322859 0.143982 0.092031
0.326358 0.144800 0.092254
0.329857 0.145619 0.092477
0.333356 0.146438 0.092701
0.336855 0.147257 0.092924
0.340354 0.148076 0.093147
0.343853 0.148895 0.093371
0.347352 0.149714 0.093594
0.350851 0.150533 0.093817
0.137281 0.100549 0.080185
0.140780 0.101367 0.080409
0.144279 0.102186 0.080632
0.147778 0.103005 0.080855
0.151277 0.103824 0.081079
0.154776 0.104643 0.081302
0.158276 0.105462 0.081525
0.161775 0.106281 0.081749
0.165274 0.107100 0.081972
0.168773 0.107919 0.082195
0.172272 0.108738 0.082419
0.175771 0.109557 0.082642
0.179270 0.110376 0.082865
0.182769 0.111195 0.083089
0.186268 0.112013 0.083312
0.189767 0.112832 0.083535
0.193266 0.113651 0.083759
0.196765 0.114470 0.083982
0.200264 0.115289 0.084205
0.203763 0.116108 0.084429
0.207262 0.116927 0.084652
0.210761 0.117746 0.084875
0.214260 0.118565 0.085099
0.217759 0.119384 0.085322
0.221258 0.120203 0.085545
0.224757 0.121022 0.085769
0.228256 0.121841 0.085992
0.231755 0.122659 0.086215
0.235254 0.123478 0.086439
0.238753 0.124297 0.086662
0.242252 0.125116 0.086886
0.245751 0.125935 0.087109
0.249250 0.126754 0.087332
0.252749 0.127573 0.087556
0.256248 0.128392 0.087779
0.259748 0.129211 0.088002
0.263247 0.130030 0.088226
0.266746 0.130849 0.088449
0.270245 0.131668 0.088672
0.273744 0.132487 0.088896
0.277243 0.133305 0.089119
0.280742 0.134124 0.089342
0.284241 0.134943 0.089566
0.287740 0.135762 0.089789
0.291239 0.136581 0.090012
0.294738 0.137400 0.090236
0.298237 0.138219 0.090459
0.301736 0.139038 0.090682
0.305235 0.139857 0.090906
0.308734 0.140676 0.091129
0.312233 0.141495 0.091352
0.315732 0.142314 0.091576
0.319231 0.143133 0.091799
0.322730 0.143951 0.092022
0.326229 0.144770 0.092246
0.329728 0.145589 0.092469
0.333227 0.146408 0.092692
0.336726 0.147227 0.092916
0.340225 0.148046 0.093139
0.343724 0.148865 0.093362
0.347223 0.149684 0.093586
0.350722 0.150503 0.093809
0.354221 0.151322 0.094032
0.357721 0.152141 0.094256
0.144151 0.102156 0.080624
0.147650 0.102975 0.080847
0.151149 0.103794 0.081070
0.154648 0.104613 0.081294
0.158147 0.105432 0.081517
0.161646 0.106251 0.081740
0.165145 0.107070 0.081964
0.168644 0.107889 0.082187
0.172143 0.108708 0.082410
0.175642 0.109527 0.082634
0.179141 0.110345 0.082857
0.182640 0.111164 0.083080
0.186139 0.111983 0.083304
0.189638 0.112802 0.083527
0.193137 0.113621 0.083751
0.196636 0.114440 0.083974
0.200135 0.115259 0.084197
0.203634 0.116078 0.084421
0.207133 0.116897 0.084644
0.210632 0.117716 0.084867
0.214131 0.118535 0.085091
0.217630 0.119354 0.085314
0.221129 0.120173 0.085537
0.224628 0.120991 0.085761
0.228127 0.121810 0.085984
0.231627 0.122629 0.086207
0.235126 0.123448 0.086431
0.238625 0.124267 0.086654
0.242124 0.125086 0.086877
0.245623 0.125905 0.087101
0.249122 0.126724 0.087324
0.252621 0.127543 0.087547
0.256120 0.128362 0.087771
0.259619 0.129181 0.087994
0.263118 0.130000 0.088217
0.266617 0.130819 0.088441
0.270116 0.131637 0.088664
0.273615 0.132456 0.088887
0.277114 0.133275 0.089111
0.280613 0.134094 0.089334
0.284112 0.134913 0.089557
0.287611 0.135732 0.089781
0.291110 0.136551 0.090004
0.294609 0.137370 0.090227
0.298108 0.138189 0.090451
0.301607 0.139008 0.090674
0.305106 0.139827 0.090897
0.308605 0.140646 0.091121
0.312104 0.141465 0.091344
0.315603 0.142283 0.091568
0.319102 0.143102 0.091791
0.322601 0.143921 0.092014
0.326100 0.144740 0.092238
0.329600 0.145559 0.092461
0.333099 0.146378 0.092684
0.336598 0.147197 0.092908
0.340097 0.148016 0.093131
0.343596 0.148835 0.093354
0.347095 0.149654 0.093578
0.350594 0.150473 0.093801
0.354093 0.151292 0.094024
0.357592 0.152111 0.094248
0.361091 0.152929 0.094471
0.364590 0.153748 0.094694
0.151020 0.103764 0.081062
0.154519 0.104583 0.081286
0.158018 0.105402 0.081509
0.161517 0.106221 0.081732
0.165016 0.107040 0.081956
0.168515 0.107859 0.082179
0.172014 0.108677 0.082402
0.175513 0.109496 0.082626
0.179012 0.110315 0.082849
0.182511 0.111134 0.083072
0.186010 0.111953 0.083296
0.189509 0.112772 0.083519
0.193008 0.113591 0.083742
0.196507 0.114410 0.083966
0.200006 0.115229 0.084189
0.203506 0.116048 0.084412
0.207005 0.116867 0.084636
0.210504 0.117686 0.084859
0.214003 0.118505 0.085082
0.217502 0.119323 0.085306
0.221001 0.120142 0.085529
0.224500 0.120961 0.085752
0.227999 0.121780 0.085976
0.231498 0.122599 0.086199
0.234997 0.123418 0.086422
0.238496 0.124237 0.086646
0.241995 0.125056 0.086869
0.245494 0.125875 0.087092
0.248993 0.126694 0.087316
0.252492 0.127513 0.087539
0.255991 0.128332 0.087762
0.259490 0.129151 0.087986
0.262989 0.129969 0.088209
0.266488 0.130788 0.088432
0.269987 0.131607 0.088656
0.273486 0.132426 0.088879
0.276985 0.133245 0.089103
0.280484 0.134064 0.089326
0.283983 0.134883 0.089549
0.287482 0.135702 0.089773
0.290981 0.136521 0.089996
0.294480 0.137340 0.090219
0.297979 0.138159 0.090443
0.301478 0.138978 0.090666
0.304978 0.139797 0.090889
0.308477 0.140615 0.091113
0.311976 0.141434 0.091336
0.315475 0.142253 0.091559
0.318974 0.143072 0.091783
0.322473 0.143891 0.092006
0.325972 0.144710 0.092229
0.329471 0.145529 0.092453
0.332970 0.146348 0.092676
0.336469 0.147167 0.092899
0.339968 0.147986 0.093123
0.343467 0.148805 0.093346
0.346966 0.149624 0.093569
0.350465 0.150443 0.093793
0.353964 0.151262 0.094016
0.357463 0.152080 0.094239
0.360962 0.152899 0.094463
0.364461 0.153718 0.094686
0.367960 0.154537 0.094909
0.371459 0.155356 0.095133
0.157889 0.105372 0.081501
0.161388 0.106191 0.081724
0.164887 0.107010 0.081947
0.168386 0.107828 0.082171
0.171885 0.108647 0.082394
0.175385 0.109466 0.082617
0.178884 0.110285 0.082841
0.182383 0.111104 0.083064
0.185882 0.111923 0.083287
0.189381 0.112742 0.083511
0.192880 0.113561 0.083734
0.196379 0.114380 0.083957
0.199878 0.115199 0.084181
0.203377 0.116018 0.084404
0.206876 0.116837 0.084627
0.210375 0.117656 0.084851
0.213874 0.118474 0.085074
0.217373 0.119293 0.085297
0.220872 0.120112 0.085521
0.224371 0.120931 0.085744
0.227870 0.121750 0.085968
0.231369 0.122569 0.086191
0.234868 0.123388 0.086414
0.238367 0.124207 0.086638
0.241866 0.125026 0.086861
0.245365 0.125845 0.087084
0.248864 0.126664 0.087308
0.252363 0.127483 0.087531
0.255862 0.128302 0.087754
0.259361 0.129120 0.087978
0.262860 0.129939 0.088201
0.266359 0.130758 0.088424
0.269858 0.131577 0.088648
0.273357 0.132396 0.088871
0.276857 0.133215 0.089094
0.280356 0.134034 0.089318
0.283855 0.134853 0.089541
0.287354 0.135672 0.089764
0.290853 0.136491 0.089988
0.294352 0.137310 0.090211
0.297851 0.138129 0.090434
0.301350 0.138948 0.090658
0.304849 0.139766 0.090881
0.308348 0.140585 0.091104
0.311847 0.141404 0.091328
0.315346 0.142223 0.091551
0.318845 0.143042 0.091774
0.322344 0.143861 0.091998
0.325843 0.144680 0.092221
0.329342 0.145499 0.092444
0.332841 0.146318 0.092668
0.336340 0.147137 0.092891
0.339839 0.147956 0.093114
0.343338 0.148775 0.093338
0.346837 0.149594 0.093561
0.350336 0.150412 0.093785
0.353835 0.151231 0.094008
0.357334 0.152050 0.094231
0.360833 0.152869 0.094455
0.364332 0.153688 0.094678
0.367831 0.154507 0.094901
0.371330 0.155326 0.095125
0.374830 0.156145 0.095348
0.378329 0.156964 0.095571
0.164759 0.106979 0.081939
0.168258 0.107798 0.082162
0.171757 0.108617 0.082386
0.175256 0.109436 0.082609
0.178755 0.110255 0.082832
0.182254 0.111074 0.083056
0.185753 0.111893 0.083279
0.189252 0.112712 0.083503
0.192751 0.113531 0.083726
0.196250 0.114350 0.083949
0.199749 0.115169 0.084173
0.203248 0.115988 0.084396
0.206747 0.116806 0.084619
0.210246 0.117625 0.084843
0.213745 0.118444 0.085066
0.217244 0.119263 0.085289
0.220743 0.120082 0.085513
0.224242 0.120901 0.085736
0.227741 0.121720 0.085959
0.231240 0.122539 0.086183
0.234739 0.123358 0.086406
0.238238 0.124177 0.086629
0.241737 0.124996 0.086853
0.245236 0.125815 0.087076
0.248736 0.126634 0.087299
0.252235 0.127452 0.087523
0.255734 0.128271 0.087746
0.259233 0.129090 0.087969
0.262732 0.129909 0.088193
0.266231 0.130728 0.088416
0.269730 0.131547 0.088639
0.273229 0.132366 0.088863
0.276728 0.133185 0.089086
0.280227 0.134004 0.089309
0.283726 0.134823 0.089533
0.287225 0.135642 0.089756
0.290724 0.136461 0.089979
0.294223 0.137280 0.090203
0.297722 0.138098 0.090426
0.301221 0.138917 0.090649
0.304720 0.139736 0.090873
0.308219 0.140555 0.091096
0.311718 0.141374 0.091320
0.315217 0.142193 0.091543
0.318716 0.143012 0.091766
0.322215 0.143831 0.091990
0.325714 0.144650 0.092213
0.329213 0.145469 0.092436
0.332712 0.146288 0.092660
0.336211 0.147107 0.092883
0.339710 0.147926 0.093106
0.343209 0.148744 0.093330
0.346708 0.149563 0.093553
0.350208 0.150382 0.093776
0.353707 0.151201 0.094000
0.357206 0.152020 0.094223
0.360705 0.152839 0.094446
0.364204 0.153658 0.094670
0.367703 0.154477 0.094893
0.371202 0.155296 0.095116
0.374701 0.156115 0.095340
0.378200 0.156934 0.095563
0.381699 0.157753 0.095786
0.385198 0.158572 0.096010
0.171628 0.108587 0.082378
0.175127 0.109406 0.082601
0.178626 0.110225 0.082824
0.182125 0.111044 0.083048
0.185624 0.111863 0.083271
0.189123 0.112682 0.083494
0.192622 0.113501 0.083718
0.196121 0.114320 0.083941
0.199620 0.115138 0.084164
0.203119 0.115957 0.084388
0.206618 0.116776 0.084611
0.210117 0.117595 0.084834
0.213616 0.118414 0.085058
0.217115 0.119233 0.085281
0.220615 0.120052 0.085504
0.224114 0.120871 0.085728
0.227613 0.121690 0.085951
0.231112 0.122509 0.086174
0.234611 0.123328 0.086398
0.238110 0.124147 0.086621
0.241609 0.124966 0.086844
0.245108 0.125785 0.087068
0.248607 0.126603 0.087291
0.252106 0.127422 0.087514
0.255605 0.128241 0.087738
0.259104 0.129060 0.087961
0.262603 0.129879 0.088185
0.266102 0.130698 0.088408
0.269601 0.131517 0.088631
0.273100 0.132336 0.088855
0.276599 0.133155 0.089078
0.280098 0.133974 0.089301
0.283597 0.134793 0.089525
0.287096 0.135612 0.089748
0.290595 0.136431 0.089971
0.294094 0.137249 0.090195
0.297593 0.138068 0.090418
0.301092 0.138887 0.090641
0.304591 0.139706 0.090865
0.308090 0.140525 0.091088
0.311589 0.141344 0.091311
0.315088 0.142163 0.091535
0.318587 0.142982 0.091758
0.322087 0.143801 0.091981
0.325586 0.144620 0.092205
0.329085 0.145439 0.092428
0.332584 0.146258 0.092651
0.336083 0.147077 0.092875
0.339582 0.147895 0.093098
0.343081 0.148714 0.093321
0.346580 0.149533 0.093545
0.350079 0.150352 0.093768
0.353578 0.151171 0.093991
0.357077 0.151990 0.094215
0.360576 0.152809 0.094438
0.364075 0.153628 0.094661
0.367574 0.154447 0.094885
0.371073 0.155266 0.095108
0.374572 0.156085 0.095331
0.378071 0.156904 0.095555
0.381570 0.157723 0.095778
0.385069 0.158541 0.096001
0.388568 0.159360 0.096225
0.392067 0.160179 0.096448
0.178497 0.110195 0.082816
0.181996 0.111014 0.083039
0.185495 0.111833 0.083263
0.188994 0.112652 0.083486
0.192493 0.113471 0.083709
0.195993 0.114289 0.083933
0.199492 0.115108 0.084156
0.202991 0.115927 0.084379
0.206490 0.116746 0.084603
0.209989 0.117565 0.084826
0.213488 0.118384 0.085049
0.216987 0.119203 0.085273
0.220486 0.120022 0.085496
0.223985 0.120841 0.085720
0.227484 0.121660 0.085943
0.230983 0.122479 0.086166
0.234482 0.123298 0.086390
0.237981 0.124117 0.086613
0.241480 0.124935 0.086836
0.244979 0.125754 0.087060
0.248478 0.126573 0.087283
0.251977 0.127392 0.087506
0.255476 0.128211 0.087730
0.258975 0.129030 0.087953
0.262474 0.129849 0.088176
0.265973 0.130668 0.088400
0.269472 0.131487 0.088623
0.272971 0.132306 0.088846
0.276470 0.133125 0.089070
0.279969 0.133944 0.089293
0.283468 0.134763 0.089516
0.286967 0.135581 0.089740
0.290466 0.136400 0.089963
0.293966 0.137219 0.090186
0.297465 0.138038 0.090410
0.300964 0.138857 0.090633
0.304463 0.139676 0.090856
0.307962 0.140495 0.091080
0.311461 0.141314 0.091303
0.314960 0.142133 0.091526
0.318459 0.142952 0.091750
0.321958 0.143771 0.091973
0.325457 0.144590 0.092196
0.328956 0.145409 0.092420
0.332455 0.146227 0.092643
0.335954 0.147046 0.092866
0.339453 0.147865 0.093090
0.342952 0.148684 0.093313
0.346451 0.149503 0.093537
0.349950 0.150322 0.093760
0.353449 0.151141 0.093983
0.356948 0.151960 0.094207
0.360447 0.152779 0.094430
0.363946 0.153598 0.094653
0.367445 0.154417 0.094877
0.370944 0.155236 0.095100
0.374443 0.156055 0.095323
0.377942 0.156873 0.095547
0.381441 0.157692 0.095770
0.384940 0.158511 0.095993
0.388439 0.159330 0.096217
0.391938 0.160149 0.096440
0.395438 0.160968 0.096663
0.398937 0.161787 0.096887
0.185367 0.111803 0.083255
0.188866 0.112621 0.083478
0.192365 0.113440 0.083701
0.195864 0.114259 0.083925
0.199363 0.115078 0.084148
0.202862 0.115897 0.084371
0.206361 0.116716 0.084595
0.209860 0.117535 0.084818
0.213359 0.118354 0.085041
0.216858 0.119173 0.085265
0.220357 0.119992 0.085488
0.223856 0.120811 0.085711
0.227355 0.121630 0.085935
0.230854 0.122449 0.086158
0.234353 0.123267 0.086381
0.237852 0.124086 0.086605
0.241351 0.124905 0.086828
0.244850 0.125724 0.087051
0.248349 0.126543 0.087275
0.251848 0.127362 0.087498
0.255347 0.128181 0.087721
0.258846 0.129000 0.087945
0.262345 0.129819 0.088168
0.265845 0.130638 0.088391
0.269344 0.131457 0.088615
0.272843 0.132276 0.088838
0.276342 0.133095 0.089061
0.279841 0.133913 0.089285
0.283340 0.134732 0.089508
0.286839 0.135551 0.089731
0.290338 0.136370 0.089955
0.293837 0.137189 0.090178
0.297336 0.138008 0.090401
0.300835 0.138827 0.090625
0.304334 0.139646 0.090848
0.307833 0.140465 0.091072
0.311332 0.141284 0.091295
0.314831 0.142103 0.091518
0.318330 0.142922 0.091742
0.321829 0.143741 0.091965
0.325328 0.144559 0.092188
0.328827 0.145378 0.092412
0.332326 0.146197 0.092635
0.335825 0.147016 0.092858
0.339324 0.147835 0.093082
0.342823 0.148654 0.093305
0.346322 0.149473 0.093528
0.349821 0.150292 0.093752
0.353320 0.151111 0.093975
0.356819 0.151930 0.094198
0.360318 0.152749 0.094422
0.363817 0.153568 0.094645
0.367317 0.154387 0.094868
0.370816 0.155205 0.095092
0.374315 0.156024 0.095315
0.377814 0.156843 0.095538
0.381313 0.157662 0.095762
0.384812 0.158481 0.095985
0.388311 0.159300 0.096208
0.391810 0.160119 0.096432
0.395309 0.160938 0.096655
0.398808 0.161757 0.096878
0.402307 0.162576 0.097102
0.405806 0.163395 0.097325
0.192236 0.113410 0.083693
0.195735 0.114229 0.083916
0.199234 0.115048 0.084140
0.202733 0.115867 0.084363
0.206232 0.116686 0.084586
0.209731 0.117505 0.084810
0.213230 0.118324 0.085033
0.216729 0.119143 0.085256
0.220228 0.119962 0.085480
0.223727 0.120781 0.085703
0.227226 0.121600 0.085926
0.230725 0.122418 0.086150
0.234224 0.123237 0.086373
0.237723 0.124056 0.086596
0.241223 0.124875 0.086820
0.244722 0.125694 0.087043
0.248221 0.126513 0.087266
0.251720 0.127332 0.087490
0.255219 0.128151 0.087713
0.258718 0.128970 0.087937
0.262217 0.129789 0.088160
0.265716 0.130608 0.088383
0.269215 0.131427 0.088607
0.272714 0.132246 0.088830
0.276213 0.133064 0.089053
0.279712 0.133883 0.089277
0.283211 0.134702 0.089500
0.286710 0.135521 0.089723
0.290209 0.136340 0.089947
0.293708 0.137159 0.090170
0.297207 0.137978 0.090393
0.300706 0.138797 0.090617
0.304205 0.139616 0.090840
0.307704 0.140435 0.091063
0.311203 0.141254 0.091287
0.314702 0.142073 0.091510
0.318201 0.142892 0.091733
0.321700 0.143710 0.091957
0.325199 0.144529 0.092180
0.328698 0.145348 0.092403
0.332197 0.146167 0.092627
0.335696 0.146986 0.092850
0.339196 0.147805 0.093073
0.342695 0.148624 0.093297
0.346194 0.149443 0.093520
0.349693 0.150262 0.093743
0.353192 0.151081 0.093967
0.356691 0.151900 0.094190
0.360190 0.152719 0.094413
0.363689 0.153538 0.094637
0.367188 0.154356 0.094860
0.370687 0.155175 0.095083
0.374186 0.155994 0.095307
0.377685 0.156813 0.095530
0.381184 0.157632 0.095754
0.384683 0.158451 0.095977
0.388182 0.159270 0.096200
0.391681 0.160089 0.096424
0.395180 0.160908 0.096647
0.398679 0.161727 0.096870
0.402178 0.162546 0.097094
0.405677 0.163365 0.097317
0.409176 0.164184 0.097540
0.412675 0.165002 0.097764
0.199105 0.115018 0.084131
0.202604 0.115837 0.084355
0.206103 0.116656 0.084578
0.209602 0.117475 0.084801
0.213102 0.118294 0.085025
0.216601 0.119113 0.085248
0.220100 0.119932 0.085472
0.223599 0.120750 0.085695
0.227098 0.121569 0.085918
0.230597 0.122388 0.086142
0.234096 0.123207 0.086365
0.237595 0.124026 0.086588
0.241094 0.124845 0.086812
0.244593 0.125664 0.087035
0.248092 0.126483 0.087258
0.251591 0.127302 0.087482
0.255090 0.128121 0.087705
0.258589 0.128940 0.087928
0.262088 0.129759 0.088152
0.265587 0.130578 0.088375
0.269086 0.131396 0.088598
0.272585 0.132215 0.088822
0.276084 0.133034 0.089045
0.279583 0.133853 0.089268
0.283082 0.134672 0.089492
0.286581 0.135491 0.089715
0.290080 0.136310 0.089938
0.293579 0.137129 0.090162
0.297078 0.137948 0.090385
0.300577 0.138767 0.090608
0.304076 0.139586 0.090832
0.307575 0.140405 0.091055
0.311075 0.141224 0.091278
0.314574 0.142042 0.091502
0.318073 0.142861 0.091725
0.321572 0.143680 0.091948
0.325071 0.144499 0.092172
0.328570 0.145318 0.092395
0.332069 0.146137 0.092618
0.335568 0.146956 0.092842
0.339067 0.147775 0.093065
0.342566 0.148594 0.093289
0.346065 0.149413 0.093512
0.349564 0.150232 0.093735
0.353063 0.151051 0.093959
0.356562 0.151870 0.094182
0.360061 0.152688 0.094405
0.363560 0.153507 0.094629
0.367059 0.154326 0.094852
0.370558 0.155145 0.095075
