tools/brand-treatment/luts/parallax_standard.cube
# Parallax Meridian Brand Treatment — standard ramp
# Desaturation: 25% of original
# Duotone: #1C1814 → #8B7355 → #C4A747
TITLE "Parallax Standard"
LUT_3D_SIZE 64
0.109804 0.094118 0.078431
0.113936 0.097505 0.080851
0.118068 0.100892 0.083270
0.122199 0.104280 0.085690
0.126331 0.107667 0.088110
0.130463 0.111054 0.090529
0.134595 0.114442 0.092949
0.138727 0.117829 0.095368
0.142859 0.121217 0.097788
0.146990 0.124604 0.100207
0.151122 0.127991 0.102627
0.155254 0.131379 0.105046
0.159386 0.134766 0.107466
0.163518 0.138153 0.109885
0.167650 0.141541 0.112305
0.171782 0.144928 0.114725
0.175913 0.148315 0.117144
0.180045 0.151703 0.119564
0.184177 0.155090 0.121983
0.188309 0.158478 0.124403
0.192441 0.161865 0.126822
0.196573 0.165252 0.129242
0.200704 0.168640 0.131661
0.204836 0.172027 0.134081
0.208968 0.175414 0.136500
0.213100 0.178802 0.138920
0.217232 0.182189 0.141340
0.221364 0.185576 0.143759
0.225495 0.188964 0.146179
0.229627 0.192351 0.148598
0.233759 0.195739 0.151018
0.237891 0.199126 0.153437
0.242023 0.202513 0.155857
0.246155 0.205901 0.158276
0.250286 0.209288 0.160696
0.254418 0.212675 0.163115
0.258550 0.216063 0.165535
0.262682 0.219450 0.167955
0.266814 0.222837 0.170374
0.270946 0.226225 0.172794
0.275077 0.229612 0.175213
0.279209 0.233000 0.177633
0.283341 0.236387 0.180052
0.287473 0.239774 0.182472
0.291605 0.243162 0.184891
0.295737 0.246549 0.187311
0.299869 0.249936 0.189730
0.304000 0.253324 0.192150
0.308132 0.256711 0.194570
0.312264 0.260098 0.196989
0.316396 0.263486 0.199409
0.320528 0.266873 0.201828
0.324660 0.270261 0.204248
0.328791 0.273648 0.206667
0.332923 0.277035 0.209087
0.337055 0.280423 0.211506
0.341187 0.283810 0.213926
0.345319 0.287197 0.216345
0.349451 0.290585 0.218765
0.353582 0.293972 0.221185
0.357714 0.297359 0.223604
0.361846 0.300747 0.226024
0.365978 0.304134 0.228443
0.370110 0.307522 0.230863
0.117916 0.100768 0.083181
0.122047 0.104155 0.085601
0.126179 0.107542 0.088021
0.130311 0.110930 0.090440
0.134443 0.114317 0.092860
0.138575 0.117705 0.095279
0.142707 0.121092 0.097699
0.146838 0.124479 0.100118
0.150970 0.127867 0.102538
0.155102 0.131254 0.104957
0.159234 0.134641 0.107377
0.163366 0.138029 0.109796
0.167498 0.141416 0.112216
0.171630 0.144803 0.114636
0.175761 0.148191 0.117055
0.179893 0.151578 0.119475
0.184025 0.154966 0.121894
0.188157 0.158353 0.124314
0.192289 0.161740 0.126733
0.196421 0.165128 0.129153
0.200552 0.168515 0.131572
0.204684 0.171902 0.133992
0.208816 0.175290 0.136411
0.212948 0.178677 0.138831
0.217080 0.182064 0.141251
0.221212 0.185452 0.143670
0.225343 0.188839 0.146090
0.229475 0.192227 0.148509
0.233607 0.195614 0.150929
0.237739 0.199001 0.153348
0.241871 0.202389 0.155768
0.246003 0.205776 0.158187
0.250134 0.209163 0.160607
0.254266 0.212551 0.163026
0.258398 0.215938 0.165446
0.262530 0.219325 0.167866
0.266662 0.222713 0.170285
0.270794 0.226100 0.172705
0.274925 0.229488 0.175124
0.279057 0.232875 0.177544
0.283189 0.236262 0.179963
0.287321 0.239650 0.182383
0.291453 0.243037 0.184802
0.295585 0.246424 0.187222
0.299717 0.249812 0.189641
0.303848 0.253199 0.192061
0.307980 0.256586 0.194481
0.312112 0.259974 0.196900
0.316244 0.263361 0.199320
0.320376 0.266749 0.201739
0.324508 0.270136 0.204159
0.328639 0.273523 0.206578
0.332771 0.276911 0.208998
0.336903 0.280298 0.211417
0.341035 0.283685 0.213837
0.345167 0.287073 0.216256
0.349299 0.290460 0.218676
0.353430 0.293847 0.221096
0.357562 0.297235 0.223515
0.361694 0.300622 0.225935
0.365826 0.304010 0.228354
0.369958 0.307397 0.230774
0.374090 0.310784 0.233193
0.378221 0.314172 0.235613
0.126027 0.107418 0.087932
0.130159 0.110805 0.090351
0.134291 0.114193 0.092771
0.138423 0.117580 0.095190
0.142555 0.120967 0.097610
0.146686 0.124355 0.100029
0.150818 0.127742 0.102449
0.154950 0.131129 0.104868
0.159082 0.134517 0.107288
0.163214 0.137904 0.109707
0.167346 0.141292 0.112127
0.171477 0.144679 0.114547
0.175609 0.148066 0.116966
0.179741 0.151454 0.119386
0.183873 0.154841 0.121805
0.188005 0.158228 0.124225
0.192137 0.161616 0.126644
0.196269 0.165003 0.129064
0.200400 0.168390 0.131483
0.204532 0.171778 0.133903
0.208664 0.175165 0.136322
0.212796 0.178553 0.138742
0.216928 0.181940 0.141162
0.221060 0.185327 0.143581
0.225191 0.188715 0.146001
0.229323 0.192102 0.148420
0.233455 0.195489 0.150840
0.237587 0.198877 0.153259
0.241719 0.202264 0.155679
0.245851 0.205651 0.158098
0.249982 0.209039 0.160518
0.254114 0.212426 0.162937
0.258246 0.215814 0.165357
0.262378 0.219201 0.167777
0.266510 0.222588 0.170196
0.270642 0.225976 0.172616
0.274773 0.229363 0.175035
0.278905 0.232750 0.177455
0.283037 0.236138 0.179874
0.287169 0.239525 0.182294
0.291301 0.242912 0.184713
0.295433 0.246300 0.187133
0.299565 0.249687 0.189552
0.303696 0.253075 0.191972
0.307828 0.256462 0.194392
0.311960 0.259849 0.196811
0.316092 0.263237 0.199231
0.320224 0.266624 0.201650
0.324356 0.270011 0.204070
0.328487 0.273399 0.206489
0.332619 0.276786 0.208909
0.336751 0.280173 0.211328
0.340883 0.283561 0.213748
0.345015 0.286948 0.216167
0.349147 0.290336 0.218587
0.353278 0.293723 0.221007
0.357410 0.297110 0.223426
0.361542 0.300498 0.225846
0.365674 0.303885 0.228265
0.369806 0.307272 0.230685
0.373938 0.310660 0.233104
0.378069 0.314047 0.235524
0.382201 0.317434 0.237943
0.386333 0.320822 0.240363
0.134139 0.114068 0.092682
0.138271 0.117455 0.095101
0.142403 0.120843 0.097521
0.146534 0.124230 0.099940
0.150666 0.127617 0.102360
0.154798 0.131005 0.104779
0.158930 0.134392 0.107199
0.163062 0.137780 0.109618
0.167194 0.141167 0.112038
0.171325 0.144554 0.114458
0.175457 0.147942 0.116877
0.179589 0.151329 0.119297
0.183721 0.154716 0.121716
0.187853 0.158104 0.124136
0.191985 0.161491 0.126555
0.196117 0.164878 0.128975
0.200248 0.168266 0.131394
0.204380 0.171653 0.133814
0.208512 0.175041 0.136233
0.212644 0.178428 0.138653
0.216776 0.181815 0.141073
0.220908 0.185203 0.143492
0.225039 0.188590 0.145912
0.229171 0.191977 0.148331
0.233303 0.195365 0.150751
0.237435 0.198752 0.153170
0.241567 0.202139 0.155590
0.245699 0.205527 0.158009
0.249830 0.208914 0.160429
0.253962 0.212302 0.162848
0.258094 0.215689 0.165268
0.262226 0.219076 0.167688
0.266358 0.222464 0.170107
0.270490 0.225851 0.172527
0.274621 0.229238 0.174946
0.278753 0.232626 0.177366
0.282885 0.236013 0.179785
0.287017 0.239400 0.182205
0.291149 0.242788 0.184624
0.295281 0.246175 0.187044
0.299413 0.249563 0.189463
0.303544 0.252950 0.191883
0.307676 0.256337 0.194303
0.311808 0.259725 0.196722
0.315940 0.263112 0.199142
0.320072 0.266499 0.201561
0.324204 0.269887 0.203981
0.328335 0.273274 0.206400
0.332467 0.276661 0.208820
0.336599 0.280049 0.211239
0.340731 0.283436 0.213659
0.344863 0.286824 0.216078
0.348995 0.290211 0.218498
0.353126 0.293598 0.220918
0.357258 0.296986 0.223337
0.361390 0.300373 0.225757
0.365522 0.303760 0.228176
0.369654 0.307148 0.230596
0.373786 0.310535 0.233015
0.377917 0.313922 0.235435
0.382049 0.317310 0.237854
0.386181 0.320697 0.240274
0.390313 0.324085 0.242693
0.394445 0.327472 0.245113
0.142251 0.120718 0.097432
0.146382 0.124105 0.099851
0.150514 0.127493 0.102271
0.154646 0.130880 0.104690
0.158778 0.134268 0.107110
0.162910 0.137655 0.109529
0.167042 0.141042 0.111949
0.171173 0.144430 0.114369
0.175305 0.147817 0.116788
0.179437 0.151204 0.119208
0.183569 0.154592 0.121627
0.187701 0.157979 0.124047
0.191833 0.161366 0.126466
0.195965 0.164754 0.128886
0.200096 0.168141 0.131305
0.204228 0.171529 0.133725
0.208360 0.174916 0.136144
0.212492 0.178303 0.138564
0.216624 0.181691 0.140984
0.220756 0.185078 0.143403
0.224887 0.188465 0.145823
0.229019 0.191853 0.148242
0.233151 0.195240 0.150662
0.237283 0.198627 0.153081
0.241415 0.202015 0.155501
0.245547 0.205402 0.157920
0.249678 0.208790 0.160340
0.253810 0.212177 0.162759
0.257942 0.215564 0.165179
0.262074 0.218952 0.167599
0.266206 0.222339 0.170018
0.270338 0.225726 0.172438
0.274469 0.229114 0.174857
0.278601 0.232501 0.177277
0.282733 0.235888 0.179696
0.286865 0.239276 0.182116
0.290997 0.242663 0.184535
0.295129 0.246051 0.186955
0.299261 0.249438 0.189374
0.303392 0.252825 0.191794
0.307524 0.256213 0.194214
0.311656 0.259600 0.196633
0.315788 0.262987 0.199053
0.319920 0.266375 0.201472
0.324052 0.269762 0.203892
0.328183 0.273149 0.206311
0.332315 0.276537 0.208731
0.336447 0.279924 0.211150
0.340579 0.283312 0.213570
0.344711 0.286699 0.215989
0.348843 0.290086 0.218409
0.352974 0.293474 0.220829
0.357106 0.296861 0.223248
0.361238 0.300248 0.225668
0.365370 0.303636 0.228087
0.369502 0.307023 0.230507
0.373634 0.310410 0.232926
0.377765 0.313798 0.235346
0.381897 0.317185 0.237765
0.386029 0.320573 0.240185
0.390161 0.323960 0.242604
0.394293 0.327347 0.245024
0.398425 0.330735 0.247444
0.402556 0.334122 0.249863
0.150362 0.127368 0.102182
0.154494 0.130756 0.104601
0.158626 0.134143 0.107021
0.162758 0.137530 0.109440
0.166890 0.140918 0.111860
0.171021 0.144305 0.114279
0.175153 0.147692 0.116699
0.179285 0.151080 0.119119
0.183417 0.154467 0.121538
0.187549 0.157854 0.123958
0.191681 0.161242 0.126377
0.195813 0.164629 0.128797
0.199944 0.168017 0.131216
0.204076 0.171404 0.133636
0.208208 0.174791 0.136055
0.212340 0.178179 0.138475
0.216472 0.181566 0.140894
0.220604 0.184953 0.143314
0.224735 0.188341 0.145734
0.228867 0.191728 0.148153
0.232999 0.195115 0.150573
0.237131 0.198503 0.152992
0.241263 0.201890 0.155412
0.245395 0.205278 0.157831
0.249526 0.208665 0.160251
0.253658 0.212052 0.162670
0.257790 0.215440 0.165090
0.261922 0.218827 0.167509
0.266054 0.222214 0.169929
0.270186 0.225602 0.172349
0.274317 0.228989 0.174768
0.278449 0.232376 0.177188
0.282581 0.235764 0.179607
0.286713 0.239151 0.182027
0.290845 0.242539 0.184446
0.294977 0.245926 0.186866
0.299108 0.249313 0.189285
0.303240 0.252701 0.191705
0.307372 0.256088 0.194124
0.311504 0.259475 0.196544
0.315636 0.262863 0.198964
0.319768 0.266250 0.201383
0.323900 0.269637 0.203803
0.328031 0.273025 0.206222
0.332163 0.276412 0.208642
0.336295 0.279800 0.211061
0.340427 0.283187 0.213481
0.344559 0.286574 0.215900
0.348691 0.289962 0.218320
0.352822 0.293349 0.220739
0.356954 0.296736 0.223159
0.361086 0.300124 0.225579
0.365218 0.303511 0.227998
0.369350 0.306898 0.230418
0.373482 0.310286 0.232837
0.377613 0.313673 0.235257
0.381745 0.317061 0.237676
0.385877 0.320448 0.240096
0.390009 0.323835 0.242515
0.394141 0.327223 0.244935
0.398273 0.330610 0.247354
0.402404 0.333997 0.249774
0.406536 0.337385 0.252194
0.410668 0.340772 0.254613
0.158474 0.134018 0.106932
0.162606 0.137406 0.109351
0.166738 0.140793 0.111771
0.170869 0.144180 0.114190
0.175001 0.147568 0.116610
0.179133 0.150955 0.119030
0.183265 0.154342 0.121449
0.187397 0.157730 0.123869
0.191529 0.161117 0.126288
0.195661 0.164505 0.128708
0.199792 0.167892 0.131127
0.203924 0.171279 0.133547
0.208056 0.174667 0.135966
0.212188 0.178054 0.138386
0.216320 0.181441 0.140805
0.220452 0.184829 0.143225
0.224583 0.188216 0.145645
0.228715 0.191603 0.148064
0.232847 0.194991 0.150484
0.236979 0.198378 0.152903
0.241111 0.201766 0.155323
0.245243 0.205153 0.157742
0.249374 0.208540 0.160162
0.253506 0.211928 0.162581
0.257638 0.215315 0.165001
0.261770 0.218702 0.167420
0.265902 0.222090 0.169840
0.270034 0.225477 0.172260
0.274165 0.228864 0.174679
0.278297 0.232252 0.177099
0.282429 0.235639 0.179518
0.286561 0.239027 0.181938
0.290693 0.242414 0.184357
0.294825 0.245801 0.186777
0.298956 0.249189 0.189196
0.303088 0.252576 0.191616
0.307220 0.255963 0.194035
0.311352 0.259351 0.196455
0.315484 0.262738 0.198875
0.319616 0.266125 0.201294
0.323748 0.269513 0.203714
0.327879 0.272900 0.206133
0.332011 0.276288 0.208553
0.336143 0.279675 0.210972
0.340275 0.283062 0.213392
0.344407 0.286450 0.215811
0.348539 0.289837 0.218231
0.352670 0.293224 0.220650
0.356802 0.296612 0.223070
0.360934 0.299999 0.225490
0.365066 0.303386 0.227909
0.369198 0.306774 0.230329
0.373330 0.310161 0.232748
0.377461 0.313549 0.235168
0.381593 0.316936 0.237587
0.385725 0.320323 0.240007
0.389857 0.323711 0.242426
0.393989 0.327098 0.244846
0.398121 0.330485 0.247265
0.402252 0.333873 0.249685
0.406384 0.337260 0.252105
0.410516 0.340647 0.254524
0.414648 0.344035 0.256944
0.418780 0.347422 0.259363
0.166586 0.140668 0.111682
0.170717 0.144056 0.114101
0.174849 0.147443 0.116521
0.178981 0.150831 0.118941
0.183113 0.154218 0.121360
0.187245 0.157605 0.123780
0.191377 0.160993 0.126199
0.195508 0.164380 0.128619
0.199640 0.167767 0.131038
0.203772 0.171155 0.133458
0.207904 0.174542 0.135877
0.212036 0.177929 0.138297
0.216168 0.181317 0.140716
0.220300 0.184704 0.143136
0.224431 0.188092 0.145556
0.228563 0.191479 0.147975
0.232695 0.194866 0.150395
0.236827 0.198254 0.152814
0.240959 0.201641 0.155234
0.245091 0.205028 0.157653
0.249222 0.208416 0.160073
0.253354 0.211803 0.162492
0.257486 0.215190 0.164912
0.261618 0.218578 0.167331
0.265750 0.221965 0.169751
0.269882 0.225353 0.172171
0.274013 0.228740 0.174590
0.278145 0.232127 0.177010
0.282277 0.235515 0.179429
0.286409 0.238902 0.181849
0.290541 0.242289 0.184268
0.294673 0.245677 0.186688
0.298804 0.249064 0.189107
0.302936 0.252451 0.191527
0.307068 0.255839 0.193946
0.311200 0.259226 0.196366
0.315332 0.262614 0.198786
0.319464 0.266001 0.201205
0.323596 0.269388 0.203625
0.327727 0.272776 0.206044
0.331859 0.276163 0.208464
0.335991 0.279550 0.210883
0.340123 0.282938 0.213303
0.344255 0.286325 0.215722
0.348387 0.289712 0.218142
0.352518 0.293100 0.220561
0.356650 0.296487 0.222981
0.360782 0.299875 0.225401
0.364914 0.303262 0.227820
0.369046 0.306649 0.230240
0.373178 0.310037 0.232659
0.377309 0.313424 0.235079
0.381441 0.316811 0.237498
0.385573 0.320199 0.239918
0.389705 0.323586 0.242337
0.393837 0.326973 0.244757
0.397969 0.330361 0.247176
0.402100 0.333748 0.249596
0.406232 0.337136 0.252016
0.410364 0.340523 0.254435
0.414496 0.343910 0.256855
0.418628 0.347298 0.259274
0.422760 0.350685 0.261694
0.426892 0.354072 0.264113
0.174697 0.147319 0.116432
0.178829 0.150706 0.118852
0.182961 0.154093 0.121271
0.187093 0.157481 0.123691
0.191225 0.160868 0.126110
0.195356 0.164255 0.128530
0.199488 0.167643 0.130949
0.203620 0.171030 0.133369
0.207752 0.174417 0.135788
0.211884 0.177805 0.138208
0.216016 0.181192 0.140627
0.220148 0.184580 0.143047
0.224279 0.187967 0.145467
0.228411 0.191354 0.147886
0.232543 0.194742 0.150306
0.236675 0.198129 0.152725
0.240807 0.201516 0.155145
0.244939 0.204904 0.157564
0.249070 0.208291 0.159984
0.253202 0.211678 0.162403
0.257334 0.215066 0.164823
0.261466 0.218453 0.167242
0.265598 0.221841 0.169662
0.269730 0.225228 0.172082
0.273861 0.228615 0.174501
0.277993 0.232003 0.176921
0.282125 0.235390 0.179340
0.286257 0.238777 0.181760
0.290389 0.242165 0.184179
0.294521 0.245552 0.186599
0.298652 0.248939 0.189018
0.302784 0.252327 0.191438
0.306916 0.255714 0.193857
0.311048 0.259102 0.196277
0.315180 0.262489 0.198697
0.319312 0.265876 0.201116
0.323444 0.269264 0.203536
0.327575 0.272651 0.205955
0.331707 0.276038 0.208375
0.335839 0.279426 0.210794
0.339971 0.282813 0.213214
0.344103 0.286200 0.215633
0.348235 0.289588 0.218053
0.352366 0.292975 0.220472
0.356498 0.296363 0.222892
0.360630 0.299750 0.225312
0.364762 0.303137 0.227731
0.368894 0.306525 0.230151
0.373026 0.309912 0.232570
0.377157 0.313299 0.234990
0.381289 0.316687 0.237409
0.385421 0.320074 0.239829
0.389553 0.323461 0.242248
0.393685 0.326849 0.244668
0.397817 0.330236 0.247087
0.401948 0.333624 0.249507
0.406080 0.337011 0.251927
0.410212 0.340398 0.254346
0.414344 0.343786 0.256766
0.418476 0.347173 0.259185
0.422608 0.350560 0.261605
0.426739 0.353948 0.264024
0.430871 0.357335 0.266444
0.435003 0.360722 0.268863
0.182809 0.153969 0.121182
0.186941 0.157356 0.123602
0.191073 0.160743 0.126021
0.195204 0.164131 0.128441
0.199336 0.167518 0.130860
0.203468 0.170905 0.133280
0.207600 0.174293 0.135699
0.211732 0.177680 0.138119
0.215864 0.181068 0.140538
0.219996 0.184455 0.142958
0.224127 0.187842 0.145378
0.228259 0.191230 0.147797
0.232391 0.194617 0.150217
0.236523 0.198004 0.152636
0.240655 0.201392 0.155056
0.244787 0.204779 0.157475
0.248918 0.208166 0.159895
0.253050 0.211554 0.162314
0.257182 0.214941 0.164734
0.261314 0.218329 0.167153
0.265446 0.221716 0.169573
0.269578 0.225103 0.171993
0.273709 0.228491 0.174412
0.277841 0.231878 0.176832
0.281973 0.235265 0.179251
0.286105 0.238653 0.181671
0.290237 0.242040 0.184090
0.294369 0.245427 0.186510
0.298500 0.248815 0.188929
0.302632 0.252202 0.191349
0.306764 0.255590 0.193768
0.310896 0.258977 0.196188
0.315028 0.262364 0.198608
0.319160 0.265752 0.201027
0.323292 0.269139 0.203447
0.327423 0.272526 0.205866
0.331555 0.275914 0.208286
0.335687 0.279301 0.210705
0.339819 0.282688 0.213125
0.343951 0.286076 0.215544
0.348083 0.289463 0.217964
0.352214 0.292851 0.220383
0.356346 0.296238 0.222803
0.360478 0.299625 0.225223
0.364610 0.303013 0.227642
0.368742 0.306400 0.230062
0.372874 0.309787 0.232481
0.377005 0.313175 0.234901
0.381137 0.316562 0.237320
0.385269 0.319949 0.239740
0.389401 0.323337 0.242159
0.393533 0.326724 0.244579
0.397665 0.330112 0.246998
0.401796 0.333499 0.249418
0.405928 0.336886 0.251838
0.410060 0.340274 0.254257
0.414192 0.343661 0.256677
0.418324 0.347048 0.259096
0.422456 0.350436 0.261516
0.426587 0.353823 0.263935
0.430719 0.357210 0.266355
0.434851 0.360598 0.268774
0.438983 0.363985 0.271194
0.443115 0.367373 0.273613
0.190921 0.160619 0.125932
0.195052 0.164006 0.128352
0.199184 0.167393 0.130771
0.203316 0.170781 0.133191
0.207448 0.174168 0.135610
0.211580 0.177556 0.138030
0.215712 0.180943 0.140449
0.219844 0.184330 0.142869
0.223975 0.187718 0.145289
0.228107 0.191105 0.147708
0.232239 0.194492 0.150128
0.236371 0.197880 0.152547
0.240503 0.201267 0.154967
0.244635 0.204654 0.157386
0.248766 0.208042 0.159806
0.252898 0.211429 0.162225
0.257030 0.214817 0.164645
0.261162 0.218204 0.167064
0.265294 0.221591 0.169484
0.269426 0.224979 0.171904
0.273557 0.228366 0.174323
0.277689 0.231753 0.176743
0.281821 0.235141 0.179162
0.285953 0.238528 0.181582
0.290085 0.241915 0.184001
0.294217 0.245303 0.186421
0.298348 0.248690 0.188840
0.302480 0.252078 0.191260
0.306612 0.255465 0.193679
0.310744 0.258852 0.196099
0.314876 0.262240 0.198519
0.319008 0.265627 0.200938
0.323139 0.269014 0.203358
0.327271 0.272402 0.205777
0.331403 0.275789 0.208197
0.335535 0.279176 0.210616
0.339667 0.282564 0.213036
0.343799 0.285951 0.215455
0.347931 0.289339 0.217875
0.352062 0.292726 0.220294
0.356194 0.296113 0.222714
0.360326 0.299501 0.225134
0.364458 0.302888 0.227553
0.368590 0.306275 0.229973
0.372722 0.309663 0.232392
0.376853 0.313050 0.234812
0.380985 0.316437 0.237231
0.385117 0.319825 0.239651
0.389249 0.323212 0.242070
0.393381 0.326600 0.244490
0.397513 0.329987 0.246909
0.401644 0.333374 0.249329
0.405776 0.336762 0.251749
0.409908 0.340149 0.254168
0.414040 0.343536 0.256588
0.418172 0.346924 0.259007
0.422304 0.350311 0.261427
0.426435 0.353698 0.263846
0.430567 0.357086 0.266266
0.434699 0.360473 0.268685
0.438831 0.363861 0.271105
0.442963 0.367248 0.273524
0.447095 0.370635 0.275944
0.451227 0.374023 0.278364
0.199032 0.167269 0.130682
0.203164 0.170656 0.133102
0.207296 0.174044 0.135521
0.211428 0.177431 0.137941
0.215560 0.180818 0.140360
0.219692 0.184206 0.142780
0.223823 0.187593 0.145200
0.227955 0.190980 0.147619
0.232087 0.194368 0.150039
0.236219 0.197755 0.152458
0.240351 0.201142 0.154878
0.244483 0.204530 0.157297
0.248614 0.207917 0.159717
0.252746 0.211305 0.162136
0.256878 0.214692 0.164556
0.261010 0.218079 0.166975
0.265142 0.221467 0.169395
0.269274 0.224854 0.171815
0.273405 0.228241 0.174234
0.277537 0.231629 0.176654
0.281669 0.235016 0.179073
0.285801 0.238403 0.181493
0.289933 0.241791 0.183912
0.294065 0.245178 0.186332
0.298196 0.248566 0.188751
0.302328 0.251953 0.191171
0.306460 0.255340 0.193590
0.310592 0.258728 0.196010
0.314724 0.262115 0.198430
0.318856 0.265502 0.200849
0.322987 0.268890 0.203269
0.327119 0.272277 0.205688
0.331251 0.275664 0.208108
0.335383 0.279052 0.210527
0.339515 0.282439 0.212947
0.343647 0.285827 0.215366
0.347779 0.289214 0.217786
0.351910 0.292601 0.220205
0.356042 0.295989 0.222625
0.360174 0.299376 0.225045
0.364306 0.302763 0.227464
0.368438 0.306151 0.229884
0.372570 0.309538 0.232303
0.376701 0.312925 0.234723
0.380833 0.316313 0.237142
0.384965 0.319700 0.239562
0.389097 0.323088 0.241981
0.393229 0.326475 0.244401
0.397361 0.329862 0.246820
0.401492 0.333250 0.249240
0.405624 0.336637 0.251660
0.409756 0.340024 0.254079
0.413888 0.343412 0.256499
0.418020 0.346799 0.258918
0.422152 0.350186 0.261338
0.426283 0.353574 0.263757
0.430415 0.356961 0.266177
0.434547 0.360349 0.268596
0.438679 0.363736 0.271016
0.442811 0.367123 0.273435
0.446943 0.370511 0.275855
0.451075 0.373898 0.278275
0.455206 0.377285 0.280694
0.459338 0.380673 0.283114
0.207144 0.173919 0.135432
0.211276 0.177306 0.137852
0.215408 0.180694 0.140271
0.219539 0.184081 0.142691
0.223671 0.187468 0.145110
0.227803 0.190856 0.147530
0.231935 0.194243 0.149950
0.236067 0.197631 0.152369
0.240199 0.201018 0.154789
0.244331 0.204405 0.157208
0.248462 0.207793 0.159628
0.252594 0.211180 0.162047
0.256726 0.214567 0.164467
0.260858 0.217955 0.166886
0.264990 0.221342 0.169306
0.269122 0.224729 0.171725
0.273253 0.228117 0.174145
0.277385 0.231504 0.176565
0.281517 0.234892 0.178984
0.285649 0.238279 0.181404
0.289781 0.241666 0.183823
0.293913 0.245054 0.186243
0.298044 0.248441 0.188662
0.302176 0.251828 0.191082
0.306308 0.255216 0.193501
0.310440 0.258603 0.195921
0.314572 0.261990 0.198340
0.318704 0.265378 0.200760
0.322835 0.268765 0.203180
0.326967 0.272153 0.205599
0.331099 0.275540 0.208019
0.335231 0.278927 0.210438
0.339363 0.282315 0.212858
0.343495 0.285702 0.215277
0.347627 0.289089 0.217697
0.351758 0.292477 0.220116
0.355890 0.295864 0.222536
0.360022 0.299251 0.224955
0.364154 0.302639 0.227375
0.368286 0.306026 0.229795
0.372418 0.309414 0.232214
0.376549 0.312801 0.234634
0.380681 0.316188 0.237053
0.384813 0.319576 0.239473
0.388945 0.322963 0.241892
0.393077 0.326350 0.244312
0.397209 0.329738 0.246731
0.401340 0.333125 0.249151
0.405472 0.336512 0.251570
0.409604 0.339900 0.253990
0.413736 0.343287 0.256410
0.417868 0.346675 0.258829
0.422000 0.350062 0.261249
0.426131 0.353449 0.263668
0.430263 0.356837 0.266088
0.434395 0.360224 0.268507
0.438527 0.363611 0.270927
0.442659 0.366999 0.273346
0.446791 0.370386 0.275766
0.450923 0.373773 0.278185
0.455054 0.377161 0.280605
0.459186 0.380548 0.283025
0.463318 0.383936 0.285444
0.467450 0.387323 0.287864
0.215256 0.180569 0.140182
0.219387 0.183956 0.142602
0.223519 0.187344 0.145021
0.227651 0.190731 0.147441
0.231783 0.194119 0.149861
0.235915 0.197506 0.152280
0.240047 0.200893 0.154700
0.244179 0.204281 0.157119
0.248310 0.207668 0.159539
0.252442 0.211055 0.161958
0.256574 0.214443 0.164378
0.260706 0.217830 0.166797
0.264838 0.221217 0.169217
0.268970 0.224605 0.171636
0.273101 0.227992 0.174056
0.277233 0.231380 0.176476
0.281365 0.234767 0.178895
0.285497 0.238154 0.181315
0.289629 0.241542 0.183734
0.293761 0.244929 0.186154
0.297892 0.248316 0.188573
0.302024 0.251704 0.190993
0.306156 0.255091 0.193412
0.310288 0.258478 0.195832
0.314420 0.261866 0.198251
0.318552 0.265253 0.200671
0.322683 0.268641 0.203091
0.326815 0.272028 0.205510
0.330947 0.275415 0.207930
0.335079 0.278803 0.210349
0.339211 0.282190 0.212769
0.343343 0.285577 0.215188
0.347475 0.288965 0.217608
0.351606 0.292352 0.220027
0.355738 0.295739 0.222447
0.359870 0.299127 0.224866
0.364002 0.302514 0.227286
0.368134 0.305902 0.229706
0.372266 0.309289 0.232125
0.376397 0.312676 0.234545
0.380529 0.316064 0.236964
0.384661 0.319451 0.239384
0.388793 0.322838 0.241803
0.392925 0.326226 0.244223
0.397057 0.329613 0.246642
0.401188 0.333000 0.249062
0.405320 0.336388 0.251481
0.409452 0.339775 0.253901
0.413584 0.343163 0.256321
0.417716 0.346550 0.258740
