tools/brand-treatment/luts/parallax_conflict.cube
# Parallax Meridian Brand Treatment — conflict ramp
# Desaturation: 25% of original
# Duotone: #1C1814 → #7A2E1A → #A64D46
TITLE "Parallax Conflict"
LUT_3D_SIZE 4
0.109804 0.094118 0.078431
0.183284 0.111315 0.083122
0.256763 0.128512 0.087812
0.330243 0.145710 0.092502
0.254060 0.127880 0.087639
0.327540 0.145077 0.092329
0.401020 0.162275 0.097020
0.474499 0.179472 0.101710
0.398316 0.161642 0.096847
0.471796 0.178839 0.101537
0.509720 0.202437 0.133250
0.544115 0.226669 0.167644
0.508455 0.201545 0.131984
0.542850 0.225778 0.166379
0.577244 0.250010 0.200774
0.611639 0.274243 0.235169
0.137820 0.100675 0.080220
0.211299 0.117872 0.084910
0.284779 0.135069 0.089600
0.358259 0.152267 0.094290
0.282076 0.134437 0.089427
0.355556 0.151634 0.094118
0.429035 0.168831 0.098808
0.489705 0.188335 0.113234
0.426332 0.168199 0.098635
0.488439 0.187443 0.111969
0.522834 0.211676 0.146363
0.557229 0.235908 0.180758
0.521569 0.210784 0.145098
0.555963 0.235017 0.179493
0.590358 0.259250 0.213888
0.624753 0.283482 0.248282
0.165835 0.107231 0.082008
0.239315 0.124429 0.086698
0.312795 0.141626 0.091388
0.386275 0.158824 0.096078
0.310092 0.140993 0.091216
0.383571 0.158191 0.095906
0.457051 0.175388 0.100596
0.502818 0.197574 0.126348
0.454348 0.174756 0.100424
0.501553 0.196682 0.125082
0.535948 0.220915 0.159477
0.570342 0.245148 0.193872
0.534682 0.220024 0.158212
0.569077 0.244256 0.192607
0.603472 0.268489 0.227001
0.637867 0.292722 0.261396
0.193851 0.113788 0.083796
0.267331 0.130986 0.088486
0.340810 0.148183 0.093176
0.414290 0.165380 0.097867
0.338107 0.147550 0.093004
0.411587 0.164748 0.097694
0.481537 0.182580 0.105067
0.515932 0.206813 0.139461
0.480272 0.181689 0.103801
0.514667 0.205922 0.138196
0.549061 0.230154 0.172591
0.583456 0.254387 0.206986
0.547796 0.229263 0.171325
0.582191 0.253495 0.205720
0.616586 0.277728 0.240115
0.650980 0.301961 0.274510
