tools/brand-treatment/luts/parallax_editorial.cube
# Parallax Meridian Brand Treatment — editorial ramp
# Desaturation: 25% of original
# Duotone: #C8B89A → #F0E6D0 → #F5F0E8
TITLE "Parallax Editorial"
LUT_3D_SIZE 4
0.784314 0.721569 0.603922
0.815582 0.757527 0.646133
0.846850 0.793485 0.688345
0.878118 0.829443 0.730557
0.845699 0.792162 0.686792
0.876967 0.828120 0.729004
0.908235 0.864078 0.771216
0.939503 0.900037 0.813427
0.907085 0.862756 0.769663
0.938353 0.898714 0.811875
0.944732 0.909072 0.832753
0.948641 0.916889 0.851514
0.944588 0.908784 0.832063
0.948497 0.916601 0.850824
0.952405 0.924418 0.869584
0.956314 0.932235 0.888345
0.796235 0.735278 0.620016
0.827503 0.771237 0.662227
0.858771 0.807195 0.704439
0.890039 0.843153 0.746651
0.857621 0.805872 0.702886
0.888889 0.841830 0.745098
0.920157 0.877788 0.787310
0.942458 0.904523 0.821835
0.919007 0.876465 0.785757
0.942314 0.904235 0.821145
0.946222 0.912052 0.839906
0.950131 0.919869 0.858667
0.946078 0.911765 0.839216
0.949987 0.919582 0.857976
0.953895 0.927399 0.876737
0.957804 0.935216 0.895498
0.808157 0.748988 0.636110
0.839425 0.784946 0.678322
0.870693 0.820905 0.720533
0.901961 0.856863 0.762745
0.869542 0.819582 0.718980
0.900810 0.855540 0.761192
0.932078 0.891498 0.803404
0.943948 0.907503 0.828988
0.930928 0.890175 0.801851
0.943804 0.907216 0.828298
0.947712 0.915033 0.847059
0.951621 0.922850 0.865820
0.947569 0.914745 0.846369
0.951477 0.922562 0.865129
0.955386 0.930379 0.883890
0.959294 0.938196 0.902651
0.820078 0.762698 0.652204
0.851346 0.798656 0.694416
0.882614 0.834614 0.736627
0.913882 0.870573 0.778839
0.881464 0.833292 0.735075
0.912732 0.869250 0.777286
0.941529 0.902667 0.817380
0.945438 0.910484 0.836141
0.941386 0.902379 0.816690
0.945294 0.910196 0.835451
0.949203 0.918013 0.854212
0.953111 0.925830 0.872973
0.949059 0.917725 0.853522
0.952967 0.925542 0.872282
0.956876 0.933359 0.891043
0.960784 0.941176 0.909804
