tools/brand-treatment/luts/parallax_standard.cube
# Parallax Meridian Brand Treatment — standard ramp
# Desaturation: 25% of original
# Duotone: #1C1814 → #8B7355 → #C4A747
TITLE "Parallax Standard"
LUT_3D_SIZE 8
0.109804 0.094118 0.078431
0.146990 0.124604 0.100207
0.184177 0.155090 0.121983
0.221364 0.185576 0.143759
0.258550 0.216063 0.165535
0.295737 0.246549 0.187311
0.332923 0.277035 0.209087
0.370110 0.307522 0.230863
0.182809 0.153969 0.121182
0.219996 0.184455 0.142958
0.257182 0.214941 0.164734
0.294369 0.245427 0.186510
0.331555 0.275914 0.208286
0.368742 0.306400 0.230062
0.405928 0.336886 0.251838
0.443115 0.367373 0.273613
0.255814 0.213820 0.163933
0.293001 0.244306 0.185709
0.330187 0.274792 0.207485
0.367374 0.305278 0.229261
0.404560 0.335765 0.251036
0.441747 0.366251 0.272812
0.478933 0.396737 0.294588
0.516120 0.427224 0.316364
0.328819 0.273671 0.206683
0.366006 0.304157 0.228459
0.403192 0.334643 0.250235
0.440379 0.365129 0.272011
0.477565 0.395616 0.293787
0.514752 0.426102 0.315563
0.548611 0.454185 0.332471
0.567706 0.471606 0.327780
0.401824 0.333522 0.249434
0.439011 0.364008 0.271210
0.476197 0.394494 0.292986
0.513384 0.424980 0.314762
0.547908 0.453544 0.332643
0.567004 0.470965 0.327953
0.586100 0.488385 0.323263
0.605196 0.505806 0.318573
0.474829 0.393373 0.292185
0.512016 0.423859 0.313961
0.547206 0.452903 0.332816
0.566301 0.470324 0.328125
0.585397 0.487745 0.323435
0.604493 0.505165 0.318745
0.623589 0.522586 0.314055
0.642685 0.540007 0.309365
0.546503 0.452262 0.332988
0.565599 0.469683 0.328298
0.584695 0.487104 0.323608
0.603790 0.504524 0.318918
0.622886 0.521945 0.314227
0.641982 0.539366 0.309537
0.661078 0.556787 0.304847
0.680174 0.574207 0.300157
0.583992 0.486463 0.323780
0.603088 0.503883 0.319090
0.622184 0.521304 0.314400
0.641280 0.538725 0.309710
0.660375 0.556146 0.305020
0.679471 0.573566 0.300329
0.698567 0.590987 0.295639
0.717663 0.608408 0.290949
0.123982 0.105741 0.086734
0.161169 0.136227 0.108510
0.198355 0.166714 0.130286
0.235542 0.197200 0.152062
0.272728 0.227686 0.173838
0.309915 0.258173 0.195613
0.347101 0.288659 0.217389
0.384288 0.319145 0.239165
0.196987 0.165592 0.129485
0.234174 0.196078 0.151261
0.271360 0.226565 0.173036
0.308547 0.257051 0.194812
0.345733 0.287537 0.216588
0.382920 0.318024 0.238364
0.420106 0.348510 0.260140
0.457293 0.378996 0.281916
0.269992 0.225443 0.172235
0.307179 0.255929 0.194011
0.344365 0.286416 0.215787
0.381552 0.316902 0.237563
0.418738 0.347388 0.259339
0.455925 0.377875 0.281115
0.493111 0.408361 0.302891
0.530298 0.438847 0.324667
0.342997 0.285294 0.214986
0.380184 0.315780 0.236762
0.417370 0.346267 0.258538
0.454557 0.376753 0.280314
0.491743 0.407239 0.302090
0.528930 0.437725 0.323866
0.555891 0.460827 0.330682
0.574987 0.478248 0.325992
0.416002 0.345145 0.257737
0.453189 0.375631 0.279513
0.490375 0.406118 0.301289
0.527562 0.436604 0.323064
0.555189 0.460186 0.330855
0.574285 0.477607 0.326165
0.593380 0.495027 0.321475
0.612476 0.512448 0.316784
0.489007 0.404996 0.300487
0.526194 0.435482 0.322263
0.554486 0.459545 0.331027
0.573582 0.476966 0.326337
0.592678 0.494387 0.321647
0.611774 0.511807 0.316957
0.630869 0.529228 0.312267
0.649965 0.546649 0.307576
0.553784 0.458904 0.331200
0.572880 0.476325 0.326510
0.591975 0.493746 0.321820
0.611071 0.511166 0.317129
0.630167 0.528587 0.312439
0.649263 0.546008 0.307749
0.668359 0.563429 0.303059
0.687454 0.580849 0.298369
0.591273 0.493105 0.321992
0.610369 0.510525 0.317302
0.629464 0.527946 0.312612
0.648560 0.545367 0.307922
0.667656 0.562788 0.303231
0.686752 0.580208 0.298541
0.705848 0.597629 0.293851
0.724943 0.615050 0.289161
0.138160 0.117365 0.095036
0.175347 0.147851 0.116812
0.212533 0.178337 0.138588
0.249720 0.208824 0.160364
0.286906 0.239310 0.182140
0.324093 0.269796 0.203916
0.361280 0.300282 0.225692
0.398466 0.330769 0.247468
0.211165 0.177216 0.137787
0.248352 0.207702 0.159563
0.285538 0.238188 0.181339
0.322725 0.268675 0.203115
0.359911 0.299161 0.224891
0.397098 0.329647 0.246667
0.434285 0.360133 0.268443
0.471471 0.390620 0.290218
0.284170 0.237067 0.180538
0.321357 0.267553 0.202314
0.358543 0.298039 0.224090
0.395730 0.328525 0.245866
0.432917 0.359012 0.267641
0.470103 0.389498 0.289417
0.507290 0.419984 0.311193
0.544476 0.450471 0.332969
0.357175 0.296918 0.223289
0.394362 0.327404 0.245064
0.431548 0.357890 0.266840
0.468735 0.388376 0.288616
0.505922 0.418863 0.310392
0.543108 0.449349 0.332168
0.563172 0.467469 0.328894
0.582268 0.484890 0.324204
0.430180 0.356769 0.266039
0.467367 0.387255 0.287815
0.504554 0.417741 0.309591
0.541740 0.448227 0.331367
0.562469 0.466828 0.329067
0.581565 0.484249 0.324376
0.600661 0.501669 0.319686
0.619757 0.519090 0.314996
0.503185 0.416620 0.308790
0.540372 0.447106 0.330566
0.561767 0.466187 0.329239
0.580863 0.483608 0.324549
0.599959 0.501029 0.319859
0.619054 0.518449 0.315169
0.638150 0.535870 0.310478
0.657246 0.553291 0.305788
0.561064 0.465546 0.329412
0.580160 0.482967 0.324722
0.599256 0.500388 0.320031
0.618352 0.517808 0.315341
0.637448 0.535229 0.310651
0.656543 0.552650 0.305961
0.675639 0.570071 0.301271
0.694735 0.587491 0.296580
0.598554 0.499747 0.320204
0.617649 0.517168 0.315514
0.636745 0.534588 0.310824
0.655841 0.552009 0.306133
0.674937 0.569430 0.301443
0.694032 0.586850 0.296753
0.713128 0.604271 0.292063
0.732224 0.621692 0.287373
0.152338 0.128988 0.103339
0.189525 0.159475 0.125115
0.226711 0.189961 0.146891
0.263898 0.220447 0.168667
0.301085 0.250933 0.190443
0.338271 0.281420 0.212218
0.375458 0.311906 0.233994
0.412644 0.342392 0.255770
0.225343 0.188839 0.146090
0.262530 0.219325 0.167866
0.299717 0.249812 0.189641
0.336903 0.280298 0.211417
0.374090 0.310784 0.233193
0.411276 0.341271 0.254969
0.448463 0.371757 0.276745
0.485649 0.402243 0.298521
0.298348 0.248690 0.188840
0.335535 0.279176 0.210616
0.372722 0.309663 0.232392
0.409908 0.340149 0.254168
0.447095 0.370635 0.275944
0.484281 0.401122 0.297720
0.521468 0.431608 0.319496
0.552059 0.457331 0.331624
0.371354 0.308541 0.231591
0.408540 0.339027 0.253367
0.445727 0.369514 0.275143
0.482913 0.400000 0.296919
0.520100 0.430486 0.318695
0.551357 0.456690 0.331796
0.570453 0.474111 0.327106
0.589548 0.491532 0.322416
0.444359 0.368392 0.274342
0.481545 0.398878 0.296118
0.518732 0.429365 0.317894
0.550654 0.456049 0.331969
0.569750 0.473470 0.327278
0.588846 0.490891 0.322588
0.607942 0.508311 0.317898
0.627038 0.525732 0.313208
0.517364 0.428243 0.317092
0.549952 0.455408 0.332141
0.569048 0.472829 0.327451
0.588143 0.490250 0.322761
0.607239 0.507671 0.318071
0.626335 0.525091 0.313380
0.645431 0.542512 0.308690
0.664527 0.559933 0.304000
0.568345 0.472188 0.327624
0.587441 0.489609 0.322933
0.606537 0.507030 0.318243
0.625632 0.524450 0.313553
0.644728 0.541871 0.308863
0.663824 0.559292 0.304173
0.682920 0.576713 0.299482
0.702016 0.594133 0.294792
0.605834 0.506389 0.318416
0.624930 0.523810 0.313725
0.644026 0.541230 0.309035
0.663122 0.558651 0.304345
0.682217 0.576072 0.299655
0.701313 0.593492 0.294965
0.720409 0.610913 0.290275
0.739505 0.628334 0.285584
0.166517 0.140612 0.111641
0.203703 0.171098 0.133417
0.240890 0.201584 0.155193
0.278076 0.232071 0.176969
0.315263 0.262557 0.198745
0.352449 0.293043 0.220521
0.389636 0.323529 0.242297
0.426822 0.354016 0.264073
0.239522 0.200463 0.154392
0.276708 0.230949 0.176168
0.313895 0.261435 0.197944
0.351081 0.291922 0.219720
0.388268 0.322408 0.241496
0.425454 0.352894 0.263272
0.462641 0.383380 0.285048
0.499827 0.413867 0.306824
0.312527 0.260314 0.197143
0.349713 0.290800 0.218919
0.386900 0.321286 0.240695
0.424086 0.351773 0.262471
0.461273 0.382259 0.284246
0.498459 0.412745 0.306022
0.535646 0.443231 0.327798
0.559340 0.463973 0.329835
0.385532 0.320165 0.239894
0.422718 0.350651 0.261669
0.459905 0.381137 0.283445
0.497091 0.411624 0.305221
0.534278 0.442110 0.326997
0.558638 0.463332 0.330008
0.577733 0.480753 0.325318
0.596829 0.498174 0.320627
0.458537 0.380016 0.282644
0.495723 0.410502 0.304420
0.532910 0.440988 0.326196
0.557935 0.462691 0.330180
0.577031 0.480112 0.325490
0.596127 0.497533 0.320800
0.615222 0.514954 0.316110
0.634318 0.532374 0.311420
0.531542 0.439867 0.325395
0.557232 0.462050 0.330353
0.576328 0.479471 0.325663
0.595424 0.496892 0.320973
0.614520 0.514313 0.316282
0.633616 0.531733 0.311592
0.652711 0.549154 0.306902
0.671807 0.566575 0.302212
0.575626 0.478830 0.325835
0.594722 0.496251 0.321145
0.613817 0.513672 0.316455
0.632913 0.531092 0.311765
0.652009 0.548513 0.307075
0.671105 0.565934 0.302384
0.690201 0.583355 0.297694
0.709296 0.600775 0.293004
0.613115 0.513031 0.316627
0.632211 0.530452 0.311937
0.651306 0.547872 0.307247
0.670402 0.565293 0.302557
0.689498 0.582714 0.297867
0.708594 0.600134 0.293176
0.727690 0.617555 0.288486
0.746785 0.634976 0.283796
0.180695 0.152235 0.119944
0.217881 0.182722 0.141720
0.255068 0.213208 0.163496
0.292254 0.243694 0.185272
0.329441 0.274180 0.207048
0.366627 0.304667 0.228824
0.403814 0.335153 0.250599
0.441001 0.365639 0.272375
0.253700 0.212086 0.162695
0.290886 0.242573 0.184471
0.328073 0.273059 0.206246
0.365259 0.303545 0.228022
0.402446 0.334031 0.249798
0.439632 0.364518 0.271574
0.476819 0.395004 0.293350
0.514006 0.425490 0.315126
0.326705 0.271937 0.205445
0.363891 0.302424 0.227221
0.401078 0.332910 0.248997
0.438264 0.363396 0.270773
0.475451 0.393882 0.292549
0.512638 0.424369 0.314325
0.547525 0.453194 0.332737
0.566621 0.470615 0.328047
0.399710 0.331788 0.248196
0.436896 0.362275 0.269972
0.474083 0.392761 0.291748
0.511269 0.423247 0.313524
0.546822 0.452554 0.332910
0.565918 0.469974 0.328220
0.585014 0.487395 0.323529
0.604110 0.504816 0.318839
0.472715 0.391639 0.290947
0.509901 0.422125 0.312723
0.546120 0.451913 0.333082
0.565216 0.469333 0.328392
0.584311 0.486754 0.323702
0.603407 0.504175 0.319012
0.622503 0.521596 0.314322
0.641599 0.539016 0.309631
0.545417 0.451272 0.333255
0.564513 0.468692 0.328565
0.583609 0.486113 0.323875
0.602705 0.503534 0.319184
0.621801 0.520955 0.314494
0.640896 0.538375 0.309804
0.659992 0.555796 0.305114
0.679088 0.573217 0.300424
0.582906 0.485472 0.324047
0.602002 0.502893 0.319357
0.621098 0.520314 0.314667
0.640194 0.537734 0.309976
0.659290 0.555155 0.305286
0.678385 0.572576 0.300596
0.697481 0.589997 0.295906
0.716577 0.607417 0.291216
0.620396 0.519673 0.314839
0.639491 0.537094 0.310149
0.658587 0.554514 0.305459
0.677683 0.571935 0.300769
0.696779 0.589356 0.296078
0.715875 0.606776 0.291388
0.734970 0.624197 0.286698
0.754066 0.641618 0.282008
0.194873 0.163859 0.128246
0.232059 0.194345 0.150022
0.269246 0.224831 0.171798
0.306432 0.255318 0.193574
0.343619 0.285804 0.215350
0.380806 0.316290 0.237126
0.417992 0.346776 0.258902
0.455179 0.377263 0.280678
0.267878 0.223710 0.170997
0.305064 0.254196 0.192773
0.342251 0.284682 0.214549
0.379438 0.315169 0.236325
0.416624 0.345655 0.258101
0.453811 0.376141 0.279877
0.490997 0.406627 0.301653
0.528184 0.437114 0.323429
0.340883 0.283561 0.213748
0.378069 0.314047 0.235524
0.415256 0.344533 0.257300
0.452443 0.375020 0.279076
0.489629 0.405506 0.300852
0.526816 0.435992 0.322627
0.554806 0.459836 0.330949
0.573901 0.477257 0.326259
0.413888 0.343412 0.256499
0.451075 0.373898 0.278275
0.488261 0.404384 0.300050
0.525448 0.434871 0.321826
0.554103 0.459196 0.331122
0.573199 0.476616 0.326431
0.592295 0.494037 0.321741
0.611390 0.511458 0.317051
0.486893 0.403263 0.299249
0.524080 0.433749 0.321025
0.553401 0.458555 0.331294
0.572496 0.475975 0.326604
0.591592 0.493396 0.321914
0.610688 0.510817 0.317224
0.629784 0.528238 0.312533
0.648880 0.545658 0.307843
0.552698 0.457914 0.331467
0.571794 0.475334 0.326776
0.590890 0.492755 0.322086
0.609985 0.510176 0.317396
0.629081 0.527597 0.312706
0.648177 0.545017 0.308016
0.667273 0.562438 0.303325
0.686369 0.579859 0.298635
0.590187 0.492114 0.322259
0.609283 0.509535 0.317569
0.628379 0.526956 0.312878
0.647475 0.544376 0.308188
0.666570 0.561797 0.303498
0.685666 0.579218 0.298808
0.704762 0.596639 0.294118
0.723858 0.614059 0.289427
0.627676 0.526315 0.313051
0.646772 0.543736 0.308361
0.665868 0.561156 0.303671
0.684964 0.578577 0.298980
0.704059 0.595998 0.294290
0.723155 0.613418 0.289600
0.742251 0.630839 0.284910
0.761347 0.648260 0.280220
0.209051 0.175482 0.136549
0.246238 0.205969 0.158325
0.283424 0.236455 0.180101
0.320611 0.266941 0.201877
0.357797 0.297427 0.223653
0.394984 0.327914 0.245429
0.432170 0.358400 0.267204
0.469357 0.388886 0.288980
0.282056 0.235333 0.179300
0.319243 0.265820 0.201076
0.356429 0.296306 0.222852
0.393616 0.326792 0.244627
0.430802 0.357278 0.266403
0.467989 0.387765 0.288179
0.505175 0.418251 0.309955
0.542362 0.448737 0.331731
0.355061 0.295184 0.222050
0.392248 0.325671 0.243826
0.429434 0.356157 0.265602
0.466621 0.386643 0.287378
0.503807 0.417129 0.309154
0.540994 0.447616 0.330930
0.562086 0.466478 0.329161
0.581182 0.483899 0.324471
0.428066 0.355035 0.264801
0.465253 0.385522 0.286577
0.502439 0.416008 0.308353
0.539626 0.446494 0.330129
0.561384 0.465838 0.329333
0.580480 0.483258 0.324643
0.599575 0.500679 0.319953
0.618671 0.518100 0.315263
0.501071 0.414886 0.307552
0.538258 0.445373 0.329328
0.560681 0.465197 0.329506
0.579777 0.482617 0.324816
0.598873 0.500038 0.320125
0.617969 0.517459 0.315435
0.637064 0.534880 0.310745
0.656160 0.552300 0.306055
0.559979 0.464556 0.329678
0.579075 0.481976 0.324988
0.598170 0.499397 0.320298
0.617266 0.516818 0.315608
0.636362 0.534239 0.310918
0.655458 0.551659 0.306227
0.674554 0.569080 0.301537
0.693649 0.586501 0.296847
0.597468 0.498756 0.320471
0.616564 0.516177 0.315780
0.635659 0.533598 0.311090
0.654755 0.551018 0.306400
0.673851 0.568439 0.301710
0.692947 0.585860 0.297020
0.712043 0.603281 0.292329
0.731138 0.620701 0.287639
0.634957 0.532957 0.311263
0.654053 0.550378 0.306573
0.673148 0.567798 0.301882
0.692244 0.585219 0.297192
0.711340 0.602640 0.292502
0.730436 0.620061 0.287812
0.749532 0.637481 0.283122
0.768627 0.654902 0.278431
