tools/brand-treatment/luts/parallax_standard.cube
# Parallax Meridian Brand Treatment — standard ramp
# Desaturation: 25% of original
# Duotone: #1C1814 → #8B7355 → #C4A747
TITLE "Parallax Standard"
LUT_3D_SIZE 4
0.109804 0.094118 0.078431
0.196573 0.165252 0.129242
0.283341 0.236387 0.180052
0.370110 0.307522 0.230863
0.280149 0.233770 0.178183
0.366918 0.304905 0.228993
0.453686 0.376039 0.279804
0.540455 0.447174 0.330614
0.450494 0.373422 0.277935
0.537263 0.444557 0.328745
0.585631 0.487958 0.323378
0.630188 0.528607 0.312434
0.583992 0.486463 0.323780
0.628549 0.527111 0.312837
0.673106 0.567759 0.301893
0.717663 0.608408 0.290949
0.142886 0.121239 0.097804
0.229655 0.192374 0.148614
0.316424 0.263508 0.199425
0.403192 0.334643 0.250235
0.313231 0.260892 0.197556
0.400000 0.332026 0.248366
0.486769 0.403161 0.299176
0.559702 0.464303 0.329746
0.483576 0.400544 0.297307
0.558063 0.462808 0.330149
0.602620 0.503456 0.319205
0.647176 0.544105 0.308261
0.600980 0.501961 0.319608
0.645537 0.542609 0.308664
0.690094 0.583258 0.297720
0.734651 0.623906 0.286776
0.175969 0.148361 0.117176
0.262737 0.219495 0.167987
0.349506 0.290630 0.218797
0.436275 0.361765 0.269608
0.346314 0.288013 0.216928
0.433082 0.359148 0.267739
0.519851 0.430282 0.318549
0.576690 0.479801 0.325574
0.516659 0.427665 0.316680
0.575051 0.478306 0.325976
0.619608 0.518954 0.315033
0.664165 0.559603 0.304089
0.617969 0.517459 0.315435
0.662525 0.558107 0.304492
0.707082 0.598756 0.293548
0.751639 0.639404 0.282604
0.209051 0.175482 0.136549
0.295820 0.246617 0.187359
0.382588 0.317752 0.238170
0.469357 0.388886 0.288980
0.379396 0.315135 0.236301
0.466165 0.386269 0.287111
0.549122 0.454651 0.332345
0.593678 0.495299 0.321401
0.547482 0.453156 0.332748
0.592039 0.493804 0.321804
0.636596 0.534452 0.310860
0.681153 0.575101 0.299916
0.634957 0.532957 0.311263
0.679514 0.573605 0.300319
0.724071 0.614254 0.289375
0.768627 0.654902 0.278431
