tools/brand-treatment/luts/parallax_conflict.cube
# Parallax Meridian Brand Treatment — conflict ramp
# Desaturation: 25% of original
# Duotone: #1C1814 → #7A2E1A → #A64D46
TITLE "Parallax Conflict"
LUT_3D_SIZE 8
0.109804 0.094118 0.078431
0.141295 0.101488 0.080441
0.172787 0.108858 0.082452
0.204278 0.116229 0.084462
0.235769 0.123599 0.086472
0.267261 0.130969 0.088482
0.298752 0.138339 0.090492
0.330243 0.145710 0.092502
0.171628 0.108587 0.082378
0.203119 0.115957 0.084388
0.234611 0.123328 0.086398
0.266102 0.130698 0.088408
0.297593 0.138068 0.090418
0.329085 0.145439 0.092428
0.360576 0.152809 0.094438
0.392067 0.160179 0.096448
0.233452 0.123057 0.086324
0.264943 0.130427 0.088334
0.296435 0.137797 0.090344
0.327926 0.145168 0.092354
0.359417 0.152538 0.094364
0.390909 0.159908 0.096374
0.422400 0.167278 0.098384
0.453891 0.174649 0.100394
0.295276 0.137526 0.090270
0.326768 0.144896 0.092280
0.358259 0.152267 0.094290
0.389750 0.159637 0.096300
0.421241 0.167007 0.098310
0.452733 0.174378 0.100320
0.481143 0.182303 0.104672
0.495883 0.192688 0.119413
0.357100 0.151996 0.094216
0.388592 0.159366 0.096226
0.420083 0.166736 0.098236
0.451574 0.174106 0.100246
0.480601 0.181920 0.104130
0.495341 0.192306 0.118871
0.510082 0.202691 0.133611
0.524822 0.213077 0.148352
0.418924 0.166465 0.098162
0.450416 0.173835 0.100173
0.480058 0.181538 0.103588
0.494799 0.191924 0.118328
0.509539 0.202309 0.133069
0.524280 0.212695 0.147810
0.539021 0.223080 0.162550
0.553761 0.233466 0.177291
0.479516 0.181156 0.103045
0.494257 0.191542 0.117786
0.508997 0.201927 0.132527
0.523738 0.212313 0.147267
0.538478 0.222698 0.162008
0.553219 0.233083 0.176748
0.567960 0.243469 0.191489
0.582700 0.253854 0.206230
0.508455 0.201545 0.131984
0.523196 0.211931 0.146725
0.537936 0.222316 0.161466
0.552677 0.232701 0.176206
0.567417 0.243087 0.190947
0.582158 0.253472 0.205687
0.596899 0.263858 0.220428
0.611639 0.274243 0.235169
0.121811 0.096928 0.079198
0.153302 0.104298 0.081208
0.184793 0.111668 0.083218
0.216285 0.119039 0.085228
0.247776 0.126409 0.087238
0.279267 0.133779 0.089248
0.310759 0.141150 0.091258
0.342250 0.148520 0.093268
0.183635 0.111397 0.083144
0.215126 0.118768 0.085154
0.246617 0.126138 0.087164
0.278109 0.133508 0.089174
0.309600 0.140878 0.091184
0.341091 0.148249 0.093194
0.372583 0.155619 0.095204
0.404074 0.162989 0.097215
0.245459 0.125867 0.087090
0.276950 0.133237 0.089100
0.308441 0.140607 0.091110
0.339933 0.147978 0.093120
0.371424 0.155348 0.095131
0.402915 0.162718 0.097141
0.434407 0.170089 0.099151
0.465898 0.177459 0.101161
0.307283 0.140336 0.091036
0.338774 0.147706 0.093046
0.370266 0.155077 0.095057
0.401757 0.162447 0.097067
0.433248 0.169817 0.099077
0.464739 0.177188 0.101087
0.486763 0.186262 0.110292
0.501504 0.196648 0.125033
0.369107 0.154806 0.094983
0.400598 0.162176 0.096993
0.432090 0.169546 0.099003
0.463581 0.176917 0.101013
0.486221 0.185880 0.109750
0.500961 0.196266 0.124491
0.515702 0.206651 0.139231
0.530443 0.217036 0.153972
0.430931 0.169275 0.098929
0.462422 0.176645 0.100939
0.485678 0.185498 0.109208
0.500419 0.195883 0.123948
0.515160 0.206269 0.138689
0.529900 0.216654 0.153430
0.544641 0.227040 0.168170
0.559382 0.237425 0.182911
0.485136 0.185116 0.108666
0.499877 0.195501 0.123406
0.514617 0.205887 0.138147
0.529358 0.216272 0.152887
0.544099 0.226658 0.167628
0.558839 0.237043 0.182369
0.573580 0.247429 0.197109
0.588320 0.257814 0.211850
0.514075 0.205505 0.137604
0.528816 0.215890 0.152345
0.543556 0.226276 0.167086
0.558297 0.236661 0.181826
0.573038 0.247046 0.196567
0.587778 0.257432 0.211308
0.602519 0.267817 0.226048
0.617259 0.278203 0.240789
0.133817 0.099738 0.079964
0.165309 0.107108 0.081974
0.196800 0.114478 0.083984
0.228291 0.121849 0.085994
0.259783 0.129219 0.088004
0.291274 0.136589 0.090015
0.322765 0.143960 0.092025
0.354257 0.151330 0.094035
0.195641 0.114207 0.083910
0.227133 0.121578 0.085920
0.258624 0.128948 0.087931
0.290115 0.136318 0.089941
0.321607 0.143689 0.091951
0.353098 0.151059 0.093961
0.384589 0.158429 0.095971
0.416081 0.165799 0.097981
0.257466 0.128677 0.087857
0.288957 0.136047 0.089867
0.320448 0.143417 0.091877
0.351939 0.150788 0.093887
0.383431 0.158158 0.095897
0.414922 0.165528 0.097907
0.446413 0.172899 0.099917
0.477905 0.180269 0.101927
0.319290 0.143146 0.091803
0.350781 0.150517 0.093813
0.382272 0.157887 0.095823
0.413764 0.165257 0.097833
0.445255 0.172627 0.099843
0.476746 0.179998 0.101853
0.492383 0.190222 0.115913
0.507124 0.200607 0.130653
0.381114 0.157616 0.095749
0.412605 0.164986 0.097759
0.444096 0.172356 0.099769
0.475588 0.179727 0.101779
0.491841 0.189840 0.115370
0.506582 0.200225 0.130111
0.521322 0.210611 0.144852
0.536063 0.220996 0.159592
0.442938 0.172085 0.099695
0.474429 0.179455 0.101705
0.491299 0.189458 0.114828
0.506039 0.199843 0.129569
0.520780 0.210229 0.144309
0.535520 0.220614 0.159050
0.550261 0.230999 0.173790
0.565002 0.241385 0.188531
0.490756 0.189076 0.114286
0.505497 0.199461 0.129026
0.520238 0.209846 0.143767
0.534978 0.220232 0.158508
0.549719 0.230617 0.173248
0.564459 0.241003 0.187989
0.579200 0.251388 0.202729
0.593941 0.261774 0.217470
0.519695 0.209464 0.143225
0.534436 0.219850 0.157965
0.549176 0.230235 0.172706
0.563917 0.240621 0.187446
0.578658 0.251006 0.202187
0.593398 0.261392 0.216928
0.608139 0.271777 0.231668
0.622880 0.282162 0.246409
0.145824 0.102548 0.080731
0.177315 0.109918 0.082741
0.208807 0.117289 0.084751
0.240298 0.124659 0.086761
0.271789 0.132029 0.088771
0.303281 0.139399 0.090781
0.334772 0.146770 0.092791
0.366263 0.154140 0.094801
0.207648 0.117017 0.084677
0.239139 0.124388 0.086687
0.270631 0.131758 0.088697
0.302122 0.139128 0.090707
0.333613 0.146499 0.092717
0.365105 0.153869 0.094727
0.396596 0.161239 0.096737
0.428087 0.168610 0.098747
0.269472 0.131487 0.088623
0.300964 0.138857 0.090633
0.332455 0.146227 0.092643
0.363946 0.153598 0.094653
0.395438 0.160968 0.096663
0.426929 0.168338 0.098673
0.458420 0.175709 0.100683
0.483805 0.184178 0.107334
0.331296 0.145956 0.092569
0.362788 0.153327 0.094579
0.394279 0.160697 0.096589
0.425770 0.168067 0.098599
0.457262 0.175438 0.100610
0.483263 0.183796 0.106792
0.498003 0.194182 0.121533
0.512744 0.204567 0.136273
0.393120 0.160426 0.096515
0.424612 0.167796 0.098525
0.456103 0.175166 0.100536
0.482720 0.183414 0.106250
0.497461 0.193799 0.120990
0.512202 0.204185 0.135731
0.526942 0.214570 0.150472
0.541683 0.224956 0.165212
0.454945 0.174895 0.100462
0.482178 0.183032 0.105708
0.496919 0.193417 0.120448
0.511659 0.203803 0.135189
0.526400 0.214188 0.149929
0.541141 0.224574 0.164670
0.555881 0.234959 0.179411
0.570622 0.245345 0.194151
0.496376 0.193035 0.119906
0.511117 0.203421 0.134646
0.525858 0.213806 0.149387
0.540598 0.224192 0.164128
0.555339 0.234577 0.178868
0.570080 0.244962 0.193609
0.584820 0.255348 0.208350
0.599561 0.265733 0.223090
0.525315 0.213424 0.148845
0.540056 0.223810 0.163585
0.554797 0.234195 0.178326
0.569537 0.244580 0.193067
0.584278 0.254966 0.207807
0.599018 0.265351 0.222548
0.613759 0.275737 0.237289
0.628500 0.286122 0.252029
0.157831 0.105358 0.081497
0.189322 0.112728 0.083507
0.220813 0.120099 0.085517
0.252305 0.127469 0.087527
0.283796 0.134839 0.089537
0.315287 0.142210 0.091547
0.346779 0.149580 0.093557
0.378270 0.156950 0.095568
0.219655 0.119827 0.085443
0.251146 0.127198 0.087453
0.282638 0.134568 0.089463
0.314129 0.141938 0.091473
0.345620 0.149309 0.093483
0.377111 0.156679 0.095494
0.408603 0.164049 0.097504
0.440094 0.171420 0.099514
0.281479 0.134297 0.089389
0.312970 0.141667 0.091399
0.344462 0.149038 0.093410
0.375953 0.156408 0.095420
0.407444 0.163778 0.097430
0.438936 0.171148 0.099440
0.470427 0.178519 0.101450
0.489425 0.188138 0.112955
0.343303 0.148766 0.093336
0.374794 0.156137 0.095346
0.406286 0.163507 0.097356
0.437777 0.170877 0.099366
0.469268 0.178248 0.101376
0.488883 0.187756 0.112412
0.503624 0.198141 0.127153
0.518364 0.208527 0.141894
0.405127 0.163236 0.097282
0.436618 0.170606 0.099292
0.468110 0.177976 0.101302
0.488341 0.187374 0.111870
0.503081 0.197759 0.126611
0.517822 0.208145 0.141351
0.532562 0.218530 0.156092
0.547303 0.228915 0.170832
0.466951 0.177705 0.101228
0.487798 0.186992 0.111328
0.502539 0.197377 0.126068
0.517280 0.207762 0.140809
0.532020 0.218148 0.155550
0.546761 0.228533 0.170290
0.561501 0.238919 0.185031
0.576242 0.249304 0.199771
0.501997 0.196995 0.125526
0.516737 0.207380 0.140267
0.531478 0.217766 0.155007
0.546218 0.228151 0.169748
0.560959 0.238537 0.184489
0.575700 0.248922 0.199229
0.590440 0.259308 0.213970
0.605181 0.269693 0.228710
0.530936 0.217384 0.154465
0.545676 0.227769 0.169206
0.560417 0.238155 0.183946
0.575157 0.248540 0.198687
0.589898 0.258925 0.213427
0.604639 0.269311 0.228168
0.619379 0.279696 0.242909
0.634120 0.290082 0.257649
0.169838 0.108168 0.082263
0.201329 0.115538 0.084273
0.232820 0.122909 0.086283
0.264311 0.130279 0.088294
0.295803 0.137649 0.090304
0.327294 0.145020 0.092314
0.358785 0.152390 0.094324
0.390277 0.159760 0.096334
0.231662 0.122638 0.086210
0.263153 0.130008 0.088220
0.294644 0.137378 0.090230
0.326136 0.144748 0.092240
0.357627 0.152119 0.094250
0.389118 0.159489 0.096260
0.420610 0.166859 0.098270
0.452101 0.174230 0.100280
0.293486 0.137107 0.090156
0.324977 0.144477 0.092166
0.356468 0.151848 0.094176
0.387960 0.159218 0.096186
0.419451 0.166588 0.098196
0.450942 0.173959 0.100206
0.480305 0.181712 0.103834
0.495045 0.192097 0.118575
0.355310 0.151576 0.094102
0.386801 0.158947 0.096112
0.418292 0.166317 0.098122
0.449784 0.173687 0.100132
0.479762 0.181330 0.103292
0.494503 0.191715 0.118032
0.509244 0.202101 0.132773
0.523984 0.212486 0.147514
0.417134 0.166046 0.098048
0.448625 0.173416 0.100058
0.479220 0.180948 0.102750
0.493961 0.191333 0.117490
0.508701 0.201719 0.132231
0.523442 0.212104 0.146971
0.538183 0.222490 0.161712
0.552923 0.232875 0.176453
0.478678 0.180566 0.102207
0.493418 0.190951 0.116948
0.508159 0.201337 0.131689
0.522900 0.211722 0.146429
0.537640 0.222108 0.161170
0.552381 0.232493 0.175910
0.567122 0.242878 0.190651
0.581862 0.253264 0.205392
0.507617 0.200955 0.131146
0.522357 0.211340 0.145887
0.537098 0.221725 0.160627
0.551839 0.232111 0.175368
0.566579 0.242496 0.190109
0.581320 0.252882 0.204849
0.596061 0.263267 0.219590
0.610801 0.273653 0.234331
0.536556 0.221343 0.160085
0.551296 0.231729 0.174826
0.566037 0.242114 0.189566
0.580778 0.252500 0.204307
0.595518 0.262885 0.219048
0.610259 0.273271 0.233788
0.624999 0.283656 0.248529
0.639740 0.294041 0.263269
0.181844 0.110978 0.083030
0.213336 0.118348 0.085040
0.244827 0.125719 0.087050
0.276318 0.133089 0.089060
0.307810 0.140459 0.091070
0.339301 0.147830 0.093080
0.370792 0.155200 0.095090
0.402283 0.162570 0.097100
0.243668 0.125448 0.086976
0.275160 0.132818 0.088986
0.306651 0.140188 0.090996
0.338142 0.147559 0.093006
0.369634 0.154929 0.095016
0.401125 0.162299 0.097026
0.432616 0.169669 0.099036
0.464108 0.177040 0.101046
0.305492 0.139917 0.090922
0.336984 0.147287 0.092932
0.368475 0.154658 0.094942
0.399966 0.162028 0.096952
0.431458 0.169398 0.098962
0.462949 0.176769 0.100973
0.485925 0.185672 0.109454
0.500666 0.196057 0.124195
0.367317 0.154387 0.094868
0.398808 0.161757 0.096878
0.430299 0.169127 0.098889
0.461790 0.176497 0.100899
0.485383 0.185290 0.108912
0.500123 0.195675 0.123653
0.514864 0.206061 0.138393
0.529604 0.216446 0.153134
0.429141 0.168856 0.098815
0.460632 0.176226 0.100825
0.484840 0.184908 0.108370
0.499581 0.195293 0.123110
0.514322 0.205678 0.137851
0.529062 0.216064 0.152592
0.543803 0.226449 0.167332
0.558543 0.236835 0.182073
0.484298 0.184525 0.107827
0.499039 0.194911 0.122568
0.513779 0.205296 0.137309
0.528520 0.215682 0.152049
0.543261 0.226067 0.166790
0.558001 0.236453 0.181531
0.572742 0.246838 0.196271
0.587482 0.257224 0.211012
0.513237 0.204914 0.136766
0.527978 0.215300 0.151507
0.542718 0.225685 0.166248
0.557459 0.236071 0.180988
0.572199 0.246456 0.195729
0.586940 0.256841 0.210469
0.601681 0.267227 0.225210
0.616421 0.277612 0.239951
0.542176 0.225303 0.165705
0.556917 0.235689 0.180446
0.571657 0.246074 0.195187
0.586398 0.256459 0.209927
0.601138 0.266845 0.224668
0.615879 0.277230 0.239408
0.630620 0.287616 0.254149
0.645360 0.298001 0.268890
0.193851 0.113788 0.083796
0.225342 0.121159 0.085806
0.256834 0.128529 0.087816
0.288325 0.135899 0.089826
0.319816 0.143269 0.091836
0.351308 0.150640 0.093846
0.382799 0.158010 0.095857
0.414290 0.165380 0.097867
0.255675 0.128258 0.087742
0.287166 0.135628 0.089752
0.318658 0.142998 0.091762
0.350149 0.150369 0.093773
0.381640 0.157739 0.095783
0.413132 0.165109 0.097793
0.444623 0.172480 0.099803
0.476114 0.179850 0.101813
0.317499 0.142727 0.091689
0.348990 0.150097 0.093699
0.380482 0.157468 0.095709
0.411973 0.164838 0.097719
0.443464 0.172208 0.099729
0.474956 0.179579 0.101739
0.491545 0.189631 0.115075
0.506286 0.200017 0.129815
0.379323 0.157197 0.095635
0.410815 0.164567 0.097645
0.442306 0.171937 0.099655
0.473797 0.179308 0.101665
0.491003 0.189249 0.114532
0.505743 0.199635 0.129273
0.520484 0.210020 0.144013
0.535225 0.220406 0.158754
0.441147 0.171666 0.099581
0.472639 0.179036 0.101591
0.490461 0.188867 0.113990
0.505201 0.199253 0.128731
0.519942 0.209638 0.143471
0.534682 0.220024 0.158212
0.549423 0.230409 0.172952
0.564164 0.240794 0.187693
0.489918 0.188485 0.113448
0.504659 0.198871 0.128188
0.519399 0.209256 0.142929
0.534140 0.219641 0.157669
0.548881 0.230027 0.172410
0.563621 0.240412 0.187151
0.578362 0.250798 0.201891
0.593103 0.261183 0.216632
0.518857 0.208874 0.142387
0.533598 0.219259 0.157127
0.548338 0.229645 0.171868
0.563079 0.240030 0.186608
0.577820 0.250416 0.201349
0.592560 0.260801 0.216090
0.607301 0.271187 0.230830
0.622041 0.281572 0.245571
0.547796 0.229263 0.171325
0.562537 0.239648 0.186066
0.577277 0.250034 0.200807
0.592018 0.260419 0.215547
0.606759 0.270804 0.230288
0.621499 0.281190 0.245029
0.636240 0.291575 0.259769
0.650980 0.301961 0.274510
